(This GCode script was designed to adjust the Z height of a CNC machine according)
(to the minute variations in the surface height in order to achieve a better result in the milling/etching process)
(This script is the output of AutoLevellerAE, 0.9.4u2 Changeset: ...e37a75 @ http://autoleveller.co.uk)
(Author: James Hawthorne PhD. File creation date: 26-04-2018 17:22)
(This program and any of its output is licensed under GPLv2 and as such...)
(AutoLevellerAE comes with ABSOLUTELY NO WARRANTY; for details, see sections 11 and 12 of the GPLv2 @ http://www.gnu.org/licenses/old-licenses/gpl-2.0.html)

(The following is a checklist which can be used before the probe routine starts)
(The checklist may not be entirely correct given your machine, therefore you should make your own adaptations as appropriate)
(1. Make sure wires/clips are attached and the probe is working correctly)
(Test probe connections within control software before starting)
(2. Home all axis)
(3. Load GCode file that contains the probe routine into your software controller)
(4. Jog tool tip close to surface and touch off Z)
(5. Jog Z up a fraction to make sure surface is cleared)
(6. Jog to and touch off X and Y at the desired bottom left corner of the probe area)
(Note: The first probe will touch off Z to 0.0 when it first touches to the surface,)
(all other probe values are relative to this first point)

G90 G21 S20000 G17

M0 (Attach probe wires and clips that need attaching)
(Initialize probe routine)
G0 Z25 (Move clear of the board first)
G1 X1.183 Y1.162 F600 (Move to bottom left corner)
G0 Z1 (Quick move to probe clearance height)
G38.2 Z-1 F100 (Probe to a maximum of the specified probe height at the specified feed rate)
G92 Z0 (Touch off Z to 0 once contact is made)
G0 Z1 (Move Z to above the contact point)
G38.2 Z-1 F50 (Repeat at a more accurate slower rate)
G92 Z0
G0 Z1

G0 Z1
G1 X1.183 Y1.162 F600
G38.2 Z-1 F100
#500=#5422
G0 Z1
G1 X6.48362 Y1.162 F600
G38.2 Z-1 F100
#501=#5422
G0 Z1
G1 X11.78424 Y1.162 F600
G38.2 Z-1 F100
#502=#5422
G0 Z1
G1 X17.08486 Y1.162 F600
G38.2 Z-1 F100
#503=#5422
G0 Z1
G1 X22.38548 Y1.162 F600
G38.2 Z-1 F100
#504=#5422
G0 Z1
G1 X27.6861 Y1.162 F600
G38.2 Z-1 F100
#505=#5422
G0 Z1
G1 X32.98672 Y1.162 F600
G38.2 Z-1 F100
#506=#5422
G0 Z1
G1 X38.28734 Y1.162 F600
G38.2 Z-1 F100
#507=#5422
G0 Z1
G1 X43.58796 Y1.162 F600
G38.2 Z-1 F100
#508=#5422
G0 Z1
G1 X43.58796 Y6.3906 F600
G38.2 Z-1 F100
#517=#5422
G0 Z1
G1 X38.28734 Y6.3906 F600
G38.2 Z-1 F100
#516=#5422
G0 Z1
G1 X32.98672 Y6.3906 F600
G38.2 Z-1 F100
#515=#5422
G0 Z1
G1 X27.6861 Y6.3906 F600
G38.2 Z-1 F100
#514=#5422
G0 Z1
G1 X22.38548 Y6.3906 F600
G38.2 Z-1 F100
#513=#5422
G0 Z1
G1 X17.08486 Y6.3906 F600
G38.2 Z-1 F100
#512=#5422
G0 Z1
G1 X11.78424 Y6.3906 F600
G38.2 Z-1 F100
#511=#5422
G0 Z1
G1 X6.48362 Y6.3906 F600
G38.2 Z-1 F100
#510=#5422
G0 Z1
G1 X1.183 Y6.3906 F600
G38.2 Z-1 F100
#509=#5422
G0 Z1
G1 X1.183 Y11.6192 F600
G38.2 Z-1 F100
#518=#5422
G0 Z1
G1 X6.48362 Y11.6192 F600
G38.2 Z-1 F100
#519=#5422
G0 Z1
G1 X11.78424 Y11.6192 F600
G38.2 Z-1 F100
#520=#5422
G0 Z1
G1 X17.08486 Y11.6192 F600
G38.2 Z-1 F100
#521=#5422
G0 Z1
G1 X22.38548 Y11.6192 F600
G38.2 Z-1 F100
#522=#5422
G0 Z1
G1 X27.6861 Y11.6192 F600
G38.2 Z-1 F100
#523=#5422
G0 Z1
G1 X32.98672 Y11.6192 F600
G38.2 Z-1 F100
#524=#5422
G0 Z1
G1 X38.28734 Y11.6192 F600
G38.2 Z-1 F100
#525=#5422
G0 Z1
G1 X43.58796 Y11.6192 F600
G38.2 Z-1 F100
#526=#5422
G0 Z1
G1 X43.58796 Y16.8478 F600
G38.2 Z-1 F100
#535=#5422
G0 Z1
G1 X38.28734 Y16.8478 F600
G38.2 Z-1 F100
#534=#5422
G0 Z1
G1 X32.98672 Y16.8478 F600
G38.2 Z-1 F100
#533=#5422
G0 Z1
G1 X27.6861 Y16.8478 F600
G38.2 Z-1 F100
#532=#5422
G0 Z1
G1 X22.38548 Y16.8478 F600
G38.2 Z-1 F100
#531=#5422
G0 Z1
G1 X17.08486 Y16.8478 F600
G38.2 Z-1 F100
#530=#5422
G0 Z1
G1 X11.78424 Y16.8478 F600
G38.2 Z-1 F100
#529=#5422
G0 Z1
G1 X6.48362 Y16.8478 F600
G38.2 Z-1 F100
#528=#5422
G0 Z1
G1 X1.183 Y16.8478 F600
G38.2 Z-1 F100
#527=#5422
G0 Z1
G1 X1.183 Y22.0764 F600
G38.2 Z-1 F100
#536=#5422
G0 Z1
G1 X6.48362 Y22.0764 F600
G38.2 Z-1 F100
#537=#5422
G0 Z1
G1 X11.78424 Y22.0764 F600
G38.2 Z-1 F100
#538=#5422
G0 Z1
G1 X17.08486 Y22.0764 F600
G38.2 Z-1 F100
#539=#5422
G0 Z1
G1 X22.38548 Y22.0764 F600
G38.2 Z-1 F100
#540=#5422
G0 Z1
G1 X27.6861 Y22.0764 F600
G38.2 Z-1 F100
#541=#5422
G0 Z1
G1 X32.98672 Y22.0764 F600
G38.2 Z-1 F100
#542=#5422
G0 Z1
G1 X38.28734 Y22.0764 F600
G38.2 Z-1 F100
#543=#5422
G0 Z1
G1 X43.58796 Y22.0764 F600
G38.2 Z-1 F100
#544=#5422
G0 Z1
G1 X43.58796 Y27.305 F600
G38.2 Z-1 F100
#553=#5422
G0 Z1
G1 X38.28734 Y27.305 F600
G38.2 Z-1 F100
#552=#5422
G0 Z1
G1 X32.98672 Y27.305 F600
G38.2 Z-1 F100
#551=#5422
G0 Z1
G1 X27.6861 Y27.305 F600
G38.2 Z-1 F100
#550=#5422
G0 Z1
G1 X22.38548 Y27.305 F600
G38.2 Z-1 F100
#549=#5422
G0 Z1
G1 X17.08486 Y27.305 F600
G38.2 Z-1 F100
#548=#5422
G0 Z1
G1 X11.78424 Y27.305 F600
G38.2 Z-1 F100
#547=#5422
G0 Z1
G1 X6.48362 Y27.305 F600
G38.2 Z-1 F100
#546=#5422
G0 Z1
G1 X1.183 Y27.305 F600
G38.2 Z-1 F100
#545=#5422
G0 Z1
G1 X1.183 Y32.5336 F600
G38.2 Z-1 F100
#554=#5422
G0 Z1
G1 X6.48362 Y32.5336 F600
G38.2 Z-1 F100
#555=#5422
G0 Z1
G1 X11.78424 Y32.5336 F600
G38.2 Z-1 F100
#556=#5422
G0 Z1
G1 X17.08486 Y32.5336 F600
G38.2 Z-1 F100
#557=#5422
G0 Z1
G1 X22.38548 Y32.5336 F600
G38.2 Z-1 F100
#558=#5422
G0 Z1
G1 X27.6861 Y32.5336 F600
G38.2 Z-1 F100
#559=#5422
G0 Z1
G1 X32.98672 Y32.5336 F600
G38.2 Z-1 F100
#560=#5422
G0 Z1
G1 X38.28734 Y32.5336 F600
G38.2 Z-1 F100
#561=#5422
G0 Z1
G1 X43.58796 Y32.5336 F600
G38.2 Z-1 F100
#562=#5422
G0 Z1
G1 X43.58796 Y37.7622 F600
G38.2 Z-1 F100
#571=#5422
G0 Z1
G1 X38.28734 Y37.7622 F600
G38.2 Z-1 F100
#570=#5422
G0 Z1
G1 X32.98672 Y37.7622 F600
G38.2 Z-1 F100
#569=#5422
G0 Z1
G1 X27.6861 Y37.7622 F600
G38.2 Z-1 F100
#568=#5422
G0 Z1
G1 X22.38548 Y37.7622 F600
G38.2 Z-1 F100
#567=#5422
G0 Z1
G1 X17.08486 Y37.7622 F600
G38.2 Z-1 F100
#566=#5422
G0 Z1
G1 X11.78424 Y37.7622 F600
G38.2 Z-1 F100
#565=#5422
G0 Z1
G1 X6.48362 Y37.7622 F600
G38.2 Z-1 F100
#564=#5422
G0 Z1
G1 X1.183 Y37.7622 F600
G38.2 Z-1 F100
#563=#5422
G0 Z1
G1 X1.183 Y42.9908 F600
G38.2 Z-1 F100
#572=#5422
G0 Z1
G1 X6.48362 Y42.9908 F600
G38.2 Z-1 F100
#573=#5422
G0 Z1
G1 X11.78424 Y42.9908 F600
G38.2 Z-1 F100
#574=#5422
G0 Z1
G1 X17.08486 Y42.9908 F600
G38.2 Z-1 F100
#575=#5422
G0 Z1
G1 X22.38548 Y42.9908 F600
G38.2 Z-1 F100
#576=#5422
G0 Z1
G1 X27.6861 Y42.9908 F600
G38.2 Z-1 F100
#577=#5422
G0 Z1
G1 X32.98672 Y42.9908 F600
G38.2 Z-1 F100
#578=#5422
G0 Z1
G1 X38.28734 Y42.9908 F600
G38.2 Z-1 F100
#579=#5422
G0 Z1
G1 X43.58796 Y42.9908 F600
G38.2 Z-1 F100
#580=#5422
G0 Z1
G1 X43.58796 Y48.2194 F600
G38.2 Z-1 F100
#589=#5422
G0 Z1
G1 X38.28734 Y48.2194 F600
G38.2 Z-1 F100
#588=#5422
G0 Z1
G1 X32.98672 Y48.2194 F600
G38.2 Z-1 F100
#587=#5422
G0 Z1
G1 X27.6861 Y48.2194 F600
G38.2 Z-1 F100
#586=#5422
G0 Z1
G1 X22.38548 Y48.2194 F600
G38.2 Z-1 F100
#585=#5422
G0 Z1
G1 X17.08486 Y48.2194 F600
G38.2 Z-1 F100
#584=#5422
G0 Z1
G1 X11.78424 Y48.2194 F600
G38.2 Z-1 F100
#583=#5422
G0 Z1
G1 X6.48362 Y48.2194 F600
G38.2 Z-1 F100
#582=#5422
G0 Z1
G1 X1.183 Y48.2194 F600
G38.2 Z-1 F100
#581=#5422
G0 Z1
G1 X1.183 Y53.448 F600
G38.2 Z-1 F100
#590=#5422
G0 Z1
G1 X6.48362 Y53.448 F600
G38.2 Z-1 F100
#591=#5422
G0 Z1
G1 X11.78424 Y53.448 F600
G38.2 Z-1 F100
#592=#5422
G0 Z1
G1 X17.08486 Y53.448 F600
G38.2 Z-1 F100
#593=#5422
G0 Z1
G1 X22.38548 Y53.448 F600
G38.2 Z-1 F100
#594=#5422
G0 Z1
G1 X27.6861 Y53.448 F600
G38.2 Z-1 F100
#595=#5422
G0 Z1
G1 X32.98672 Y53.448 F600
G38.2 Z-1 F100
#596=#5422
G0 Z1
G1 X38.28734 Y53.448 F600
G38.2 Z-1 F100
#597=#5422
G0 Z1
G1 X43.58796 Y53.448 F600
G38.2 Z-1 F100
#598=#5422
G0 Z1.00000

M0 (Detach any clips used for probing)

G94 ( Millimeters per minute feed rate. )
G21 ( Units == Millimeters. )

G90 ( Absolute coordinates. )
G64 P0.01000 ( set maximum deviation from commanded toolpath )
G21
G90
G94
G21
G90
G94
F400.00
G00 Z1.0000
M03 S18000
G4 P1
G00 X2.8177Y4.6823
#102=[#509+0.32672*#500-0.32672*#509]
#101=[#510+0.32672*#501-0.32672*#510]
#100=[#102+0.30840*#101-0.30840*#102]
G01 Z[#100+-0.1000]
#102=[#509+0.46793*#500-0.46793*#509]
#101=[#510+0.46793*#501-0.46793*#510]
#100=[#102+0.36594*#101-0.36594*#102]
G01 X3.1227Y3.9440Z[#100+-0.1000]
#102=[#509+0.57604*#500-0.57604*#509]
#101=[#510+0.57604*#501-0.57604*#510]
#100=[#102+0.47242*#101-0.47242*#102]
G01 X3.6871Y3.3787Z[#100+-0.1000]
#102=[#509+0.63464*#500-0.63464*#509]
#101=[#510+0.63464*#501-0.63464*#510]
#100=[#102+0.61159*#101-0.61159*#102]
G01 X4.4248Y3.0723Z[#100+-0.1000]
#102=[#509+0.63476*#500-0.63476*#509]
#101=[#510+0.63476*#501-0.63476*#510]
#100=[#102+0.76231*#101-0.76231*#102]
G01 X5.2237Y3.0717Z[#100+-0.1000]
#102=[#509+0.57643*#500-0.57643*#509]
#101=[#510+0.57643*#501-0.57643*#510]
#100=[#102+0.90159*#101-0.90159*#102]
G01 X5.9620Y3.3767Z[#100+-0.1000]
#102=[#510+0.46848*#501-0.46848*#510]
#101=[#511+0.46848*#502-0.46848*#511]
#100=[#102+0.00824*#101-0.00824*#102]
G01 X6.5273Y3.9411Z[#100+-0.1000]
#102=[#510+0.32739*#501-0.32739*#510]
#101=[#511+0.32739*#502-0.32739*#511]
#100=[#102+0.06605*#101-0.06605*#102]
G01 X6.8337Y4.6788Z[#100+-0.1000]
#102=[#510+0.17460*#501-0.17460*#510]
#101=[#511+0.17460*#502-0.17460*#511]
#100=[#102+0.06616*#101-0.06616*#102]
G01 X6.8343Y5.4777Z[#100+-0.1000]
#102=[#510+0.03339*#501-0.03339*#510]
#101=[#511+0.03339*#502-0.03339*#511]
#100=[#102+0.00862*#101-0.00862*#102]
G01 X6.5293Y6.2160Z[#100+-0.1000]
#102=[#518+0.92528*#509-0.92528*#518]
#101=[#519+0.92528*#510-0.92528*#519]
#100=[#102+0.90214*#101-0.90214*#102]
G01 X5.9649Y6.7813Z[#100+-0.1000]
#102=[#518+0.86668*#509-0.86668*#518]
#101=[#519+0.86668*#510-0.86668*#519]
#100=[#102+0.76297*#101-0.76297*#102]
G01 X5.2272Y7.0877Z[#100+-0.1000]
#102=[#518+0.86656*#509-0.86656*#518]
#101=[#519+0.86656*#510-0.86656*#519]
#100=[#102+0.61225*#101-0.61225*#102]
G01 X4.4283Y7.0883Z[#100+-0.1000]
#102=[#518+0.92489*#509-0.92489*#518]
#101=[#519+0.92489*#510-0.92489*#519]
#100=[#102+0.47296*#101-0.47296*#102]
G01 X3.6900Y6.7833Z[#100+-0.1000]
#102=[#509+0.03284*#500-0.03284*#509]
#101=[#510+0.03284*#501-0.03284*#510]
#100=[#102+0.36632*#101-0.36632*#102]
G01 X3.1247Y6.2189Z[#100+-0.1000]
#102=[#509+0.17393*#500-0.17393*#509]
#101=[#510+0.17393*#501-0.17393*#510]
#100=[#102+0.30851*#101-0.30851*#102]
G01 X2.8183Y5.4812Z[#100+-0.1000]
#102=[#509+0.32672*#500-0.32672*#509]
#101=[#510+0.32672*#501-0.32672*#510]
#100=[#102+0.30840*#101-0.30840*#102]
G01 X2.8177Y4.6823Z[#100+-0.1000]
G00 Z1.0000
G00 X2.9677Y4.7120
#102=[#509+0.32104*#500-0.32104*#509]
#101=[#510+0.32104*#501-0.32104*#510]
#100=[#102+0.33670*#101-0.33670*#102]
G01 Z[#100+-0.1000]
#102=[#509+0.45169*#500-0.45169*#509]
#101=[#510+0.45169*#501-0.45169*#510]
#100=[#102+0.38994*#101-0.38994*#102]
G01 X3.2499Y4.0289Z[#100+-0.1000]
#102=[#509+0.55173*#500-0.55173*#509]
#101=[#510+0.55173*#501-0.55173*#510]
#100=[#102+0.48847*#101-0.48847*#102]
G01 X3.7722Y3.5058Z[#100+-0.1000]
#102=[#509+0.60596*#500-0.60596*#509]
#101=[#510+0.60596*#501-0.60596*#510]
#100=[#102+0.61725*#101-0.61725*#102]
G01 X4.4548Y3.2223Z[#100+-0.1000]
#102=[#509+0.60607*#500-0.60607*#509]
#101=[#510+0.60607*#501-0.60607*#510]
#100=[#102+0.75670*#101-0.75670*#102]
G01 X5.1940Y3.2217Z[#100+-0.1000]
#102=[#509+0.55210*#500-0.55210*#509]
#101=[#510+0.55210*#501-0.55210*#510]
#100=[#102+0.88558*#101-0.88558*#102]
G01 X5.8771Y3.5039Z[#100+-0.1000]
#102=[#509+0.45221*#500-0.45221*#509]
#101=[#510+0.45221*#501-0.45221*#510]
#100=[#102+0.98426*#101-0.98426*#102]
G01 X6.4002Y4.0262Z[#100+-0.1000]
#102=[#510+0.32165*#501-0.32165*#510]
#101=[#511+0.32165*#502-0.32165*#511]
#100=[#102+0.03775*#101-0.03775*#102]
G01 X6.6837Y4.7088Z[#100+-0.1000]
#102=[#510+0.18028*#501-0.18028*#510]
#101=[#511+0.18028*#502-0.18028*#511]
#100=[#102+0.03786*#101-0.03786*#102]
G01 X6.6843Y5.4480Z[#100+-0.1000]
#102=[#509+0.04963*#500-0.04963*#509]
#101=[#510+0.04963*#501-0.04963*#510]
#100=[#102+0.98462*#101-0.98462*#102]
G01 X6.4021Y6.1311Z[#100+-0.1000]
#102=[#518+0.94958*#509-0.94958*#518]
#101=[#519+0.94958*#510-0.94958*#519]
#100=[#102+0.88609*#101-0.88609*#102]
G01 X5.8798Y6.6542Z[#100+-0.1000]
#102=[#518+0.89536*#509-0.89536*#518]
#101=[#519+0.89536*#510-0.89536*#519]
#100=[#102+0.75731*#101-0.75731*#102]
G01 X5.1972Y6.9377Z[#100+-0.1000]
#102=[#518+0.89525*#509-0.89525*#518]
#101=[#519+0.89525*#510-0.89525*#519]
#100=[#102+0.61785*#101-0.61785*#102]
G01 X4.4580Y6.9383Z[#100+-0.1000]
#102=[#518+0.94922*#509-0.94922*#518]
#101=[#519+0.94922*#510-0.94922*#519]
#100=[#102+0.48898*#101-0.48898*#102]
G01 X3.7749Y6.6561Z[#100+-0.1000]
#102=[#509+0.04911*#500-0.04911*#509]
#101=[#510+0.04911*#501-0.04911*#510]
#100=[#102+0.39029*#101-0.39029*#102]
G01 X3.2518Y6.1338Z[#100+-0.1000]
#102=[#509+0.17967*#500-0.17967*#509]
#101=[#510+0.17967*#501-0.17967*#510]
#100=[#102+0.33681*#101-0.33681*#102]
G01 X2.9683Y5.4512Z[#100+-0.1000]
#102=[#509+0.32104*#500-0.32104*#509]
#101=[#510+0.32104*#501-0.32104*#510]
#100=[#102+0.33670*#101-0.33670*#102]
G01 X2.9677Y4.7120Z[#100+-0.1000]
G00 Z1.0000
G00 X3.1177Y4.7417
#102=[#509+0.31536*#500-0.31536*#509]
#101=[#510+0.31536*#501-0.31536*#510]
#100=[#102+0.36500*#101-0.36500*#102]
G01 Z[#100+-0.1000]
#102=[#509+0.43545*#500-0.43545*#509]
#101=[#510+0.43545*#501-0.43545*#510]
#100=[#102+0.41395*#101-0.41395*#102]
G01 X3.3772Y4.1138Z[#100+-0.1000]
#102=[#509+0.52743*#500-0.52743*#509]
#101=[#510+0.52743*#501-0.52743*#510]
#100=[#102+0.50451*#101-0.50451*#102]
G01 X3.8572Y3.6329Z[#100+-0.1000]
#102=[#509+0.57727*#500-0.57727*#509]
#101=[#510+0.57727*#501-0.57727*#510]
#100=[#102+0.62291*#101-0.62291*#102]
G01 X4.4848Y3.3723Z[#100+-0.1000]
#102=[#509+0.57738*#500-0.57738*#509]
#101=[#510+0.57738*#501-0.57738*#510]
#100=[#102+0.75110*#101-0.75110*#102]
G01 X5.1643Y3.3717Z[#100+-0.1000]
#102=[#509+0.52775*#500-0.52775*#509]
#101=[#510+0.52775*#501-0.52775*#510]
#100=[#102+0.86956*#101-0.86956*#102]
G01 X5.7922Y3.6312Z[#100+-0.1000]
#102=[#509+0.43595*#500-0.43595*#509]
#101=[#510+0.43595*#501-0.43595*#510]
#100=[#102+0.96028*#101-0.96028*#102]
G01 X6.2731Y4.1112Z[#100+-0.1000]
#102=[#510+0.31592*#501-0.31592*#510]
#101=[#511+0.31592*#502-0.31592*#511]
#100=[#102+0.00945*#101-0.00945*#102]
G01 X6.5337Y4.7388Z[#100+-0.1000]
#102=[#510+0.18596*#501-0.18596*#510]
#101=[#511+0.18596*#502-0.18596*#511]
#100=[#102+0.00956*#101-0.00956*#102]
G01 X6.5343Y5.4183Z[#100+-0.1000]
#102=[#509+0.06587*#500-0.06587*#509]
#101=[#510+0.06587*#501-0.06587*#510]
#100=[#102+0.96060*#101-0.96060*#102]
G01 X6.2748Y6.0462Z[#100+-0.1000]
#102=[#518+0.97389*#509-0.97389*#518]
#101=[#519+0.97389*#510-0.97389*#519]
#100=[#102+0.87005*#101-0.87005*#102]
G01 X5.7948Y6.5271Z[#100+-0.1000]
#102=[#518+0.92405*#509-0.92405*#518]
#101=[#519+0.92405*#510-0.92405*#519]
#100=[#102+0.75165*#101-0.75165*#102]
G01 X5.1672Y6.7877Z[#100+-0.1000]
#102=[#518+0.92394*#509-0.92394*#518]
#101=[#519+0.92394*#510-0.92394*#519]
#100=[#102+0.62346*#101-0.62346*#102]
G01 X4.4877Y6.7883Z[#100+-0.1000]
#102=[#518+0.97357*#509-0.97357*#518]
#101=[#519+0.97357*#510-0.97357*#519]
#100=[#102+0.50500*#101-0.50500*#102]
G01 X3.8598Y6.5288Z[#100+-0.1000]
#102=[#509+0.06537*#500-0.06537*#509]
#101=[#510+0.06537*#501-0.06537*#510]
#100=[#102+0.41427*#101-0.41427*#102]
G01 X3.3789Y6.0488Z[#100+-0.1000]
#102=[#509+0.18540*#500-0.18540*#509]
#101=[#510+0.18540*#501-0.18540*#510]
#100=[#102+0.36511*#101-0.36511*#102]
G01 X3.1183Y5.4212Z[#100+-0.1000]
#102=[#509+0.31536*#500-0.31536*#509]
#101=[#510+0.31536*#501-0.31536*#510]
#100=[#102+0.36500*#101-0.36500*#102]
G01 X3.1177Y4.7417Z[#100+-0.1000]
G00 Z1.0000
G00 X8.4729Y2.6257
#102=[#510+0.72006*#501-0.72006*#510]
#101=[#511+0.72006*#502-0.72006*#511]
#100=[#102+0.37529*#101-0.37529*#102]
G01 Z[#100+-0.1000]
#102=[#510+0.72084*#501-0.72084*#510]
#101=[#511+0.72084*#502-0.72084*#511]
#100=[#102+0.37544*#101-0.37544*#102]
G01 X8.4737Y2.6216Z[#100+-0.1000]
#102=[#510+0.72144*#501-0.72144*#510]
#101=[#511+0.72144*#502-0.72144*#511]
#100=[#102+0.37584*#101-0.37584*#102]
G01 X8.4758Y2.6185Z[#100+-0.1000]
#102=[#510+0.72006*#501-0.72006*#510]
#101=[#511+0.72006*#502-0.72006*#511]
#100=[#102+0.37529*#101-0.37529*#102]
G01 X8.4729Y2.6257Z[#100+-0.1000]
G00 Z1.0000
G00 X10.1067Y2.4258
#102=[#510+0.75829*#501-0.75829*#510]
#101=[#511+0.75829*#502-0.75829*#511]
#100=[#102+0.68352*#101-0.68352*#102]
G01 Z[#100+-0.1000]
#102=[#510+0.77275*#501-0.77275*#510]
#101=[#511+0.77275*#502-0.77275*#511]
#100=[#102+0.69778*#101-0.69778*#102]
G01 X10.1823Y2.3502Z[#100+-0.1000]
#102=[#510+0.76435*#501-0.76435*#510]
#101=[#511+0.76435*#502-0.76435*#511]
#100=[#102+0.70093*#101-0.70093*#102]
G01 X10.1990Y2.3941Z[#100+-0.1000]
#102=[#510+0.75978*#501-0.75978*#510]
#101=[#511+0.75978*#502-0.75978*#511]
#100=[#102+0.70306*#101-0.70306*#102]
G01 X10.2103Y2.4180Z[#100+-0.1000]
#102=[#510+0.75978*#501-0.75978*#510]
#101=[#511+0.75978*#502-0.75978*#511]
#100=[#102+0.69810*#101-0.69810*#102]
G01 X10.1840Y2.4180Z[#100+-0.1000]
#102=[#510+0.75936*#501-0.75936*#510]
#101=[#511+0.75936*#502-0.75936*#511]
#100=[#102+0.69024*#101-0.69024*#102]
G01 X10.1423Y2.4202Z[#100+-0.1000]
#102=[#510+0.75829*#501-0.75829*#510]
#101=[#511+0.75829*#502-0.75829*#511]
#100=[#102+0.68352*#101-0.68352*#102]
G01 X10.1067Y2.4258Z[#100+-0.1000]
G00 Z1.0000
G00 X12.1880Y2.5600
#102=[#511+0.73262*#502-0.73262*#511]
#101=[#512+0.73262*#503-0.73262*#512]
#100=[#102+0.07617*#101-0.07617*#102]
G01 Z[#100+-0.1000]
#102=[#511+0.73262*#502-0.73262*#511]
#101=[#512+0.73262*#503-0.73262*#512]
#100=[#102+0.27375*#101-0.27375*#102]
G01 X13.2353Y2.5600Z[#100+-0.1000]
#102=[#511+0.72511*#502-0.72511*#511]
#101=[#512+0.72511*#503-0.72511*#512]
#100=[#102+0.29164*#101-0.29164*#102]
G01 X13.3301Y2.5993Z[#100+-0.1000]
#102=[#511+0.71122*#502-0.71122*#511]
#101=[#512+0.71122*#503-0.71122*#512]
#100=[#102+0.30533*#101-0.30533*#102]
G01 X13.4027Y2.6719Z[#100+-0.1000]
#102=[#511+0.69309*#502-0.69309*#511]
#101=[#512+0.69309*#503-0.69309*#512]
#100=[#102+0.31275*#101-0.31275*#102]
G01 X13.4420Y2.7667Z[#100+-0.1000]
#102=[#511+0.49279*#502-0.49279*#511]
#101=[#512+0.49279*#503-0.49279*#512]
#100=[#102+0.31275*#101-0.31275*#102]
G01 X13.4420Y3.8140Z[#100+-0.1000]
#102=[#511+0.49279*#502-0.49279*#511]
#101=[#512+0.49279*#503-0.49279*#512]
#100=[#102+0.31124*#101-0.31124*#102]
G01 X13.4340Y3.8140Z[#100+-0.1000]
#102=[#511+0.68328*#502-0.68328*#511]
#101=[#512+0.68328*#503-0.68328*#512]
#100=[#102+0.31124*#101-0.31124*#102]
G01 X13.4340Y2.8180Z[#100+-0.1000]
#102=[#511+0.68827*#502-0.68827*#511]
#101=[#512+0.68827*#503-0.68827*#512]
#100=[#102+0.31097*#101-0.31097*#102]
G01 X13.4326Y2.7919Z[#100+-0.1000]
#102=[#511+0.69321*#502-0.69321*#511]
#101=[#512+0.69321*#503-0.69321*#512]
#100=[#102+0.31022*#101-0.31022*#102]
G01 X13.4286Y2.7661Z[#100+-0.1000]
#102=[#511+0.69803*#502-0.69803*#511]
#101=[#512+0.69803*#503-0.69803*#512]
#100=[#102+0.30894*#101-0.30894*#102]
G01 X13.4218Y2.7409Z[#100+-0.1000]
#102=[#511+0.70269*#502-0.70269*#511]
#101=[#512+0.70269*#503-0.70269*#512]
#100=[#102+0.30718*#101-0.30718*#102]
G01 X13.4125Y2.7165Z[#100+-0.1000]
#102=[#511+0.70717*#502-0.70717*#511]
#101=[#512+0.70717*#503-0.70717*#512]
#100=[#102+0.30494*#101-0.30494*#102]
G01 X13.4006Y2.6931Z[#100+-0.1000]
#102=[#511+0.71138*#502-0.71138*#511]
#101=[#512+0.71138*#503-0.71138*#512]
#100=[#102+0.30224*#101-0.30224*#102]
G01 X13.3863Y2.6711Z[#100+-0.1000]
#102=[#511+0.71528*#502-0.71528*#511]
#101=[#512+0.71528*#503-0.71528*#512]
#100=[#102+0.29913*#101-0.29913*#102]
G01 X13.3698Y2.6507Z[#100+-0.1000]
#102=[#511+0.71882*#502-0.71882*#511]
#101=[#512+0.71882*#503-0.71882*#512]
#100=[#102+0.29564*#101-0.29564*#102]
G01 X13.3513Y2.6322Z[#100+-0.1000]
#102=[#511+0.72197*#502-0.72197*#511]
#101=[#512+0.72197*#503-0.72197*#512]
#100=[#102+0.29179*#101-0.29179*#102]
G01 X13.3309Y2.6157Z[#100+-0.1000]
#102=[#511+0.72471*#502-0.72471*#511]
#101=[#512+0.72471*#503-0.72471*#512]
#100=[#102+0.28764*#101-0.28764*#102]
G01 X13.3089Y2.6014Z[#100+-0.1000]
#102=[#511+0.72698*#502-0.72698*#511]
#101=[#512+0.72698*#503-0.72698*#512]
#100=[#102+0.28322*#101-0.28322*#102]
G01 X13.2855Y2.5895Z[#100+-0.1000]
#102=[#511+0.72876*#502-0.72876*#511]
#101=[#512+0.72876*#503-0.72876*#512]
#100=[#102+0.27862*#101-0.27862*#102]
G01 X13.2611Y2.5802Z[#100+-0.1000]
#102=[#511+0.73006*#502-0.73006*#511]
#101=[#512+0.73006*#503-0.73006*#512]
#100=[#102+0.27387*#101-0.27387*#102]
G01 X13.2359Y2.5734Z[#100+-0.1000]
#102=[#511+0.73083*#502-0.73083*#511]
#101=[#512+0.73083*#503-0.73083*#512]
#100=[#102+0.26900*#101-0.26900*#102]
G01 X13.2101Y2.5694Z[#100+-0.1000]
#102=[#511+0.73109*#502-0.73109*#511]
#101=[#512+0.73109*#503-0.73109*#512]
#100=[#102+0.26407*#101-0.26407*#102]
G01 X13.1840Y2.5680Z[#100+-0.1000]
#102=[#511+0.73109*#502-0.73109*#511]
#101=[#512+0.73109*#503-0.73109*#512]
#100=[#102+0.07617*#101-0.07617*#102]
G01 X12.1880Y2.5680Z[#100+-0.1000]
#102=[#511+0.73262*#502-0.73262*#511]
#101=[#512+0.73262*#503-0.73262*#512]
#100=[#102+0.07617*#101-0.07617*#102]
G01 X12.1880Y2.5600Z[#100+-0.1000]
G00 Z1.0000
G00 X13.2246Y2.7266
#102=[#511+0.70076*#502-0.70076*#511]
#101=[#512+0.70076*#503-0.70076*#512]
#100=[#102+0.27173*#101-0.27173*#102]
G01 Z[#100+-0.1000]
#102=[#511+0.70147*#502-0.70147*#511]
#101=[#512+0.70147*#503-0.70147*#512]
#100=[#102+0.26990*#101-0.26990*#102]
G01 X13.2149Y2.7229Z[#100+-0.1000]
#102=[#511+0.70199*#502-0.70199*#511]
#101=[#512+0.70199*#503-0.70199*#512]
#100=[#102+0.26800*#101-0.26800*#102]
G01 X13.2048Y2.7202Z[#100+-0.1000]
#102=[#511+0.70231*#502-0.70231*#511]
#101=[#512+0.70231*#503-0.70231*#512]
#100=[#102+0.26604*#101-0.26604*#102]
G01 X13.1944Y2.7185Z[#100+-0.1000]
#102=[#511+0.70241*#502-0.70241*#511]
#101=[#512+0.70241*#503-0.70241*#512]
#100=[#102+0.26407*#101-0.26407*#102]
G01 X13.1840Y2.7180Z[#100+-0.1000]
#102=[#511+0.70241*#502-0.70241*#511]
#101=[#512+0.70241*#503-0.70241*#512]
#100=[#102+0.04787*#101-0.04787*#102]
G01 X12.0380Y2.7180Z[#100+-0.1000]
#102=[#511+0.75638*#502-0.75638*#511]
#101=[#512+0.75638*#503-0.75638*#512]
#100=[#102+0.04787*#101-0.04787*#102]
G01 X12.0380Y2.4358Z[#100+-0.1000]
#102=[#511+0.76131*#502-0.76131*#511]
#101=[#512+0.76131*#503-0.76131*#512]
#100=[#102+0.05274*#101-0.05274*#102]
G01 X12.0638Y2.4100Z[#100+-0.1000]
#102=[#511+0.76131*#502-0.76131*#511]
#101=[#512+0.76131*#503-0.76131*#512]
#100=[#102+0.27939*#101-0.27939*#102]
G01 X13.2652Y2.4100Z[#100+-0.1000]
#102=[#511+0.74944*#502-0.74944*#511]
#101=[#512+0.74944*#503-0.74944*#512]
#100=[#102+0.30767*#101-0.30767*#102]
G01 X13.4151Y2.4721Z[#100+-0.1000]
#102=[#511+0.72748*#502-0.72748*#511]
#101=[#512+0.72748*#503-0.72748*#512]
#100=[#102+0.32933*#101-0.32933*#102]
G01 X13.5299Y2.5869Z[#100+-0.1000]
#102=[#511+0.69881*#502-0.69881*#511]
#101=[#512+0.69881*#503-0.69881*#512]
#100=[#102+0.34105*#101-0.34105*#102]
G01 X13.5920Y2.7368Z[#100+-0.1000]
#102=[#511+0.46904*#502-0.46904*#511]
#101=[#512+0.46904*#503-0.46904*#512]
#100=[#102+0.34105*#101-0.34105*#102]
G01 X13.5920Y3.9382Z[#100+-0.1000]
#102=[#511+0.46410*#502-0.46410*#511]
#101=[#512+0.46410*#503-0.46410*#512]
#100=[#102+0.33618*#101-0.33618*#102]
G01 X13.5662Y3.9640Z[#100+-0.1000]
#102=[#511+0.46410*#502-0.46410*#511]
#101=[#512+0.46410*#503-0.46410*#512]
#100=[#102+0.28294*#101-0.28294*#102]
G01 X13.2840Y3.9640Z[#100+-0.1000]
#102=[#511+0.68328*#502-0.68328*#511]
#101=[#512+0.68328*#503-0.68328*#512]
#100=[#102+0.28294*#101-0.28294*#102]
G01 X13.2840Y2.8180Z[#100+-0.1000]
#102=[#511+0.68527*#502-0.68527*#511]
#101=[#512+0.68527*#503-0.68527*#512]
#100=[#102+0.28285*#101-0.28285*#102]
G01 X13.2835Y2.8076Z[#100+-0.1000]
#102=[#511+0.68726*#502-0.68726*#511]
#101=[#512+0.68726*#503-0.68726*#512]
#100=[#102+0.28253*#101-0.28253*#102]
G01 X13.2818Y2.7972Z[#100+-0.1000]
#102=[#511+0.68919*#502-0.68919*#511]
#101=[#512+0.68919*#503-0.68919*#512]
#100=[#102+0.28202*#101-0.28202*#102]
G01 X13.2791Y2.7871Z[#100+-0.1000]
#102=[#511+0.69105*#502-0.69105*#511]
#101=[#512+0.69105*#503-0.69105*#512]
#100=[#102+0.28132*#101-0.28132*#102]
G01 X13.2754Y2.7774Z[#100+-0.1000]
#102=[#511+0.69284*#502-0.69284*#511]
#101=[#512+0.69284*#503-0.69284*#512]
#100=[#102+0.28041*#101-0.28041*#102]
G01 X13.2706Y2.7680Z[#100+-0.1000]
#102=[#511+0.69453*#502-0.69453*#511]
#101=[#512+0.69453*#503-0.69453*#512]
#100=[#102+0.27934*#101-0.27934*#102]
G01 X13.2649Y2.7592Z[#100+-0.1000]
#102=[#511+0.69608*#502-0.69608*#511]
#101=[#512+0.69608*#503-0.69608*#512]
#100=[#102+0.27809*#101-0.27809*#102]
G01 X13.2583Y2.7511Z[#100+-0.1000]
#102=[#511+0.69749*#502-0.69749*#511]
#101=[#512+0.69749*#503-0.69749*#512]
#100=[#102+0.27670*#101-0.27670*#102]
G01 X13.2509Y2.7437Z[#100+-0.1000]
#102=[#511+0.69875*#502-0.69875*#511]
#101=[#512+0.69875*#503-0.69875*#512]
#100=[#102+0.27517*#101-0.27517*#102]
G01 X13.2428Y2.7371Z[#100+-0.1000]
#102=[#511+0.69984*#502-0.69984*#511]
#101=[#512+0.69984*#503-0.69984*#512]
#100=[#102+0.27351*#101-0.27351*#102]
G01 X13.2340Y2.7314Z[#100+-0.1000]
#102=[#511+0.70076*#502-0.70076*#511]
#101=[#512+0.70076*#503-0.70076*#512]
#100=[#102+0.27173*#101-0.27173*#102]
G01 X13.2246Y2.7266Z[#100+-0.1000]
G00 Z1.0000
G00 X12.0380Y5.9180
#102=[#511+0.09039*#502-0.09039*#511]
#101=[#512+0.09039*#503-0.09039*#512]
#100=[#102+0.04787*#101-0.04787*#102]
G01 Z[#100+-0.1000]
#102=[#511+0.09039*#502-0.09039*#511]
#101=[#512+0.09039*#503-0.09039*#512]
#100=[#102+0.26407*#101-0.26407*#102]
G01 X13.1840Y5.9180Z[#100+-0.1000]
#102=[#511+0.09048*#502-0.09048*#511]
#101=[#512+0.09048*#503-0.09048*#512]
#100=[#102+0.26604*#101-0.26604*#102]
G01 X13.1944Y5.9175Z[#100+-0.1000]
#102=[#511+0.09081*#502-0.09081*#511]
#101=[#512+0.09081*#503-0.09081*#512]
#100=[#102+0.26800*#101-0.26800*#102]
G01 X13.2048Y5.9158Z[#100+-0.1000]
#102=[#511+0.09132*#502-0.09132*#511]
#101=[#512+0.09132*#503-0.09132*#512]
#100=[#102+0.26990*#101-0.26990*#102]
G01 X13.2149Y5.9131Z[#100+-0.1000]
#102=[#511+0.09203*#502-0.09203*#511]
#101=[#512+0.09203*#503-0.09203*#512]
#100=[#102+0.27173*#101-0.27173*#102]
G01 X13.2246Y5.9094Z[#100+-0.1000]
#102=[#511+0.09295*#502-0.09295*#511]
#101=[#512+0.09295*#503-0.09295*#512]
#100=[#102+0.27351*#101-0.27351*#102]
G01 X13.2340Y5.9046Z[#100+-0.1000]
#102=[#511+0.09404*#502-0.09404*#511]
#101=[#512+0.09404*#503-0.09404*#512]
#100=[#102+0.27517*#101-0.27517*#102]
G01 X13.2428Y5.8989Z[#100+-0.1000]
#102=[#511+0.09530*#502-0.09530*#511]
#101=[#512+0.09530*#503-0.09530*#512]
#100=[#102+0.27670*#101-0.27670*#102]
G01 X13.2509Y5.8923Z[#100+-0.1000]
#102=[#511+0.09672*#502-0.09672*#511]
#101=[#512+0.09672*#503-0.09672*#512]
#100=[#102+0.27809*#101-0.27809*#102]
G01 X13.2583Y5.8849Z[#100+-0.1000]
#102=[#511+0.09827*#502-0.09827*#511]
#101=[#512+0.09827*#503-0.09827*#512]
#100=[#102+0.27934*#101-0.27934*#102]
G01 X13.2649Y5.8768Z[#100+-0.1000]
#102=[#511+0.09995*#502-0.09995*#511]
#101=[#512+0.09995*#503-0.09995*#512]
#100=[#102+0.28041*#101-0.28041*#102]
G01 X13.2706Y5.8680Z[#100+-0.1000]
#102=[#511+0.10175*#502-0.10175*#511]
#101=[#512+0.10175*#503-0.10175*#512]
#100=[#102+0.28132*#101-0.28132*#102]
G01 X13.2754Y5.8586Z[#100+-0.1000]
#102=[#511+0.10360*#502-0.10360*#511]
#101=[#512+0.10360*#503-0.10360*#512]
#100=[#102+0.28202*#101-0.28202*#102]
G01 X13.2791Y5.8489Z[#100+-0.1000]
#102=[#511+0.10553*#502-0.10553*#511]
#101=[#512+0.10553*#503-0.10553*#512]
#100=[#102+0.28253*#101-0.28253*#102]
G01 X13.2818Y5.8388Z[#100+-0.1000]
#102=[#511+0.10752*#502-0.10752*#511]
#101=[#512+0.10752*#503-0.10752*#512]
#100=[#102+0.28285*#101-0.28285*#102]
G01 X13.2835Y5.8284Z[#100+-0.1000]
#102=[#511+0.10951*#502-0.10951*#511]
#101=[#512+0.10951*#503-0.10951*#512]
#100=[#102+0.28294*#101-0.28294*#102]
G01 X13.2840Y5.8180Z[#100+-0.1000]
#102=[#511+0.32869*#502-0.32869*#511]
#101=[#512+0.32869*#503-0.32869*#512]
#100=[#102+0.28294*#101-0.28294*#102]
G01 X13.2840Y4.6720Z[#100+-0.1000]
#102=[#511+0.32869*#502-0.32869*#511]
#101=[#512+0.32869*#503-0.32869*#512]
#100=[#102+0.33618*#101-0.33618*#102]
G01 X13.5662Y4.6720Z[#100+-0.1000]
#102=[#511+0.32376*#502-0.32376*#511]
#101=[#512+0.32376*#503-0.32376*#512]
#100=[#102+0.34105*#101-0.34105*#102]
G01 X13.5920Y4.6978Z[#100+-0.1000]
#102=[#511+0.09398*#502-0.09398*#511]
#101=[#512+0.09398*#503-0.09398*#512]
#100=[#102+0.34105*#101-0.34105*#102]
G01 X13.5920Y5.8992Z[#100+-0.1000]
#102=[#511+0.06531*#502-0.06531*#511]
#101=[#512+0.06531*#503-0.06531*#512]
#100=[#102+0.32933*#101-0.32933*#102]
G01 X13.5299Y6.0491Z[#100+-0.1000]
#102=[#511+0.04336*#502-0.04336*#511]
#101=[#512+0.04336*#503-0.04336*#512]
#100=[#102+0.30767*#101-0.30767*#102]
G01 X13.4151Y6.1639Z[#100+-0.1000]
#102=[#511+0.03148*#502-0.03148*#511]
#101=[#512+0.03148*#503-0.03148*#512]
#100=[#102+0.27939*#101-0.27939*#102]
G01 X13.2652Y6.2260Z[#100+-0.1000]
#102=[#511+0.03148*#502-0.03148*#511]
#101=[#512+0.03148*#503-0.03148*#512]
#100=[#102+0.05274*#101-0.05274*#102]
G01 X12.0638Y6.2260Z[#100+-0.1000]
#102=[#511+0.03642*#502-0.03642*#511]
#101=[#512+0.03642*#503-0.03642*#512]
#100=[#102+0.04787*#101-0.04787*#102]
G01 X12.0380Y6.2002Z[#100+-0.1000]
#102=[#511+0.09039*#502-0.09039*#511]
#101=[#512+0.09039*#503-0.09039*#512]
#100=[#102+0.04787*#101-0.04787*#102]
G01 X12.0380Y5.9180Z[#100+-0.1000]
G00 Z1.0000
G00 X12.1880Y6.0680
#102=[#511+0.06170*#502-0.06170*#511]
#101=[#512+0.06170*#503-0.06170*#512]
#100=[#102+0.07617*#101-0.07617*#102]
G01 Z[#100+-0.1000]
#102=[#511+0.06170*#502-0.06170*#511]
#101=[#512+0.06170*#503-0.06170*#512]
#100=[#102+0.26407*#101-0.26407*#102]
G01 X13.1840Y6.0680Z[#100+-0.1000]
#102=[#511+0.06197*#502-0.06197*#511]
#101=[#512+0.06197*#503-0.06197*#512]
#100=[#102+0.26900*#101-0.26900*#102]
G01 X13.2101Y6.0666Z[#100+-0.1000]
#102=[#511+0.06273*#502-0.06273*#511]
#101=[#512+0.06273*#503-0.06273*#512]
#100=[#102+0.27387*#101-0.27387*#102]
G01 X13.2359Y6.0626Z[#100+-0.1000]
#102=[#511+0.06403*#502-0.06403*#511]
#101=[#512+0.06403*#503-0.06403*#512]
#100=[#102+0.27862*#101-0.27862*#102]
G01 X13.2611Y6.0558Z[#100+-0.1000]
#102=[#511+0.06581*#502-0.06581*#511]
#101=[#512+0.06581*#503-0.06581*#512]
#100=[#102+0.28322*#101-0.28322*#102]
G01 X13.2855Y6.0465Z[#100+-0.1000]
#102=[#511+0.06809*#502-0.06809*#511]
#101=[#512+0.06809*#503-0.06809*#512]
#100=[#102+0.28764*#101-0.28764*#102]
G01 X13.3089Y6.0346Z[#100+-0.1000]
#102=[#511+0.07082*#502-0.07082*#511]
#101=[#512+0.07082*#503-0.07082*#512]
#100=[#102+0.29179*#101-0.29179*#102]
G01 X13.3309Y6.0203Z[#100+-0.1000]
#102=[#511+0.07398*#502-0.07398*#511]
#101=[#512+0.07398*#503-0.07398*#512]
#100=[#102+0.29564*#101-0.29564*#102]
G01 X13.3513Y6.0038Z[#100+-0.1000]
#102=[#511+0.07752*#502-0.07752*#511]
#101=[#512+0.07752*#503-0.07752*#512]
#100=[#102+0.29913*#101-0.29913*#102]
G01 X13.3698Y5.9853Z[#100+-0.1000]
#102=[#511+0.08142*#502-0.08142*#511]
#101=[#512+0.08142*#503-0.08142*#512]
#100=[#102+0.30224*#101-0.30224*#102]
G01 X13.3863Y5.9649Z[#100+-0.1000]
#102=[#511+0.08563*#502-0.08563*#511]
#101=[#512+0.08563*#503-0.08563*#512]
#100=[#102+0.30494*#101-0.30494*#102]
G01 X13.4006Y5.9429Z[#100+-0.1000]
#102=[#511+0.09010*#502-0.09010*#511]
#101=[#512+0.09010*#503-0.09010*#512]
#100=[#102+0.30718*#101-0.30718*#102]
G01 X13.4125Y5.9195Z[#100+-0.1000]
#102=[#511+0.09477*#502-0.09477*#511]
#101=[#512+0.09477*#503-0.09477*#512]
#100=[#102+0.30894*#101-0.30894*#102]
G01 X13.4218Y5.8951Z[#100+-0.1000]
#102=[#511+0.09959*#502-0.09959*#511]
#101=[#512+0.09959*#503-0.09959*#512]
#100=[#102+0.31022*#101-0.31022*#102]
G01 X13.4286Y5.8699Z[#100+-0.1000]
#102=[#511+0.10452*#502-0.10452*#511]
#101=[#512+0.10452*#503-0.10452*#512]
#100=[#102+0.31097*#101-0.31097*#102]
G01 X13.4326Y5.8441Z[#100+-0.1000]
#102=[#511+0.10951*#502-0.10951*#511]
#101=[#512+0.10951*#503-0.10951*#512]
#100=[#102+0.31124*#101-0.31124*#102]
G01 X13.4340Y5.8180Z[#100+-0.1000]
#102=[#511+0.30000*#502-0.30000*#511]
#101=[#512+0.30000*#503-0.30000*#512]
#100=[#102+0.31124*#101-0.31124*#102]
G01 X13.4340Y4.8220Z[#100+-0.1000]
#102=[#511+0.30000*#502-0.30000*#511]
#101=[#512+0.30000*#503-0.30000*#512]
#100=[#102+0.31275*#101-0.31275*#102]
G01 X13.4420Y4.8220Z[#100+-0.1000]
#102=[#511+0.09970*#502-0.09970*#511]
#101=[#512+0.09970*#503-0.09970*#512]
#100=[#102+0.31275*#101-0.31275*#102]
G01 X13.4420Y5.8693Z[#100+-0.1000]
#102=[#511+0.08157*#502-0.08157*#511]
#101=[#512+0.08157*#503-0.08157*#512]
#100=[#102+0.30533*#101-0.30533*#102]
G01 X13.4027Y5.9641Z[#100+-0.1000]
#102=[#511+0.06769*#502-0.06769*#511]
#101=[#512+0.06769*#503-0.06769*#512]
#100=[#102+0.29164*#101-0.29164*#102]
G01 X13.3301Y6.0367Z[#100+-0.1000]
#102=[#511+0.06017*#502-0.06017*#511]
#101=[#512+0.06017*#503-0.06017*#512]
#100=[#102+0.27375*#101-0.27375*#102]
G01 X13.2353Y6.0760Z[#100+-0.1000]
#102=[#511+0.06017*#502-0.06017*#511]
#101=[#512+0.06017*#503-0.06017*#512]
#100=[#102+0.07617*#101-0.07617*#102]
G01 X12.1880Y6.0760Z[#100+-0.1000]
#102=[#511+0.06170*#502-0.06170*#511]
#101=[#512+0.06170*#503-0.06170*#512]
#100=[#102+0.07617*#101-0.07617*#102]
G01 X12.1880Y6.0680Z[#100+-0.1000]
G00 Z1.0000
G00 X9.4900Y5.7854
#102=[#510+0.11575*#501-0.11575*#510]
#101=[#511+0.11575*#502-0.11575*#511]
#100=[#102+0.56718*#101-0.56718*#102]
G01 Z[#100+-0.1000]
#102=[#510+0.64034*#501-0.64034*#510]
#101=[#511+0.64034*#502-0.64034*#511]
#100=[#102+0.56718*#101-0.56718*#102]
G01 X9.4900Y3.0425Z[#100+-0.1000]
#102=[#510+0.69806*#501-0.69806*#510]
#101=[#511+0.69806*#502-0.69806*#511]
#100=[#102+0.62411*#101-0.62411*#102]
G01 X9.7918Y2.7407Z[#100+-0.1000]
#102=[#510+0.69126*#501-0.69126*#510]
#101=[#511+0.69126*#502-0.69126*#511]
#100=[#102+0.62306*#101-0.62306*#102]
G01 X9.7862Y2.7763Z[#100+-0.1000]
#102=[#510+0.68328*#501-0.68328*#510]
#101=[#511+0.68328*#502-0.68328*#511]
#100=[#102+0.62264*#101-0.62264*#102]
G01 X9.7840Y2.8180Z[#100+-0.1000]
#102=[#510+0.12567*#501-0.12567*#510]
#101=[#511+0.12567*#502-0.12567*#511]
#100=[#102+0.62264*#101-0.62264*#102]
G01 X9.7840Y5.7335Z[#100+-0.1000]
#102=[#510+0.12613*#501-0.12613*#510]
#101=[#511+0.12613*#502-0.12613*#511]
#100=[#102+0.61757*#101-0.61757*#102]
G01 X9.7571Y5.7311Z[#100+-0.1000]
#102=[#510+0.12634*#501-0.12634*#510]
#101=[#511+0.12634*#502-0.12634*#511]
#100=[#102+0.61151*#101-0.61151*#102]
G01 X9.7250Y5.7300Z[#100+-0.1000]
#102=[#510+0.12613*#501-0.12613*#510]
#101=[#511+0.12613*#502-0.12613*#511]
#100=[#102+0.60545*#101-0.60545*#102]
G01 X9.6929Y5.7311Z[#100+-0.1000]
#102=[#510+0.12585*#501-0.12585*#510]
#101=[#511+0.12585*#502-0.12585*#511]
#100=[#102+0.60164*#101-0.60164*#102]
G01 X9.6727Y5.7326Z[#100+-0.1000]
#102=[#510+0.12504*#501-0.12504*#510]
#101=[#511+0.12504*#502-0.12504*#511]
#100=[#102+0.59576*#101-0.59576*#102]
G01 X9.6415Y5.7368Z[#100+-0.1000]
#102=[#510+0.12405*#501-0.12405*#510]
#101=[#511+0.12405*#502-0.12405*#511]
#100=[#102+0.59047*#101-0.59047*#102]
G01 X9.6135Y5.7420Z[#100+-0.1000]
#102=[#510+0.12206*#501-0.12206*#510]
#101=[#511+0.12206*#502-0.12206*#511]
#100=[#102+0.58287*#101-0.58287*#102]
G01 X9.5732Y5.7524Z[#100+-0.1000]
#102=[#510+0.12001*#501-0.12001*#510]
#101=[#511+0.12001*#502-0.12001*#511]
#100=[#102+0.57691*#101-0.57691*#102]
G01 X9.5416Y5.7631Z[#100+-0.1000]
#102=[#510+0.11789*#501-0.11789*#510]
#101=[#511+0.11789*#502-0.11789*#511]
#100=[#102+0.57168*#101-0.57168*#102]
G01 X9.5139Y5.7742Z[#100+-0.1000]
#102=[#510+0.11575*#501-0.11575*#510]
#101=[#511+0.11575*#502-0.11575*#511]
#100=[#102+0.56718*#101-0.56718*#102]
G01 X9.4900Y5.7854Z[#100+-0.1000]
G00 Z1.0000
G00 X9.3042Y8.8115
#102=[#519+0.53699*#510-0.53699*#519]
#101=[#520+0.53699*#511-0.53699*#520]
#100=[#102+0.53212*#101-0.53212*#102]
G01 Z[#100+-0.1000]
#102=[#519+0.53837*#510-0.53837*#519]
#101=[#520+0.53837*#511-0.53837*#520]
#100=[#102+0.53267*#101-0.53267*#102]
G01 X9.3071Y8.8043Z[#100+-0.1000]
#102=[#519+0.53758*#510-0.53758*#519]
#101=[#520+0.53758*#511-0.53758*#520]
#100=[#102+0.53252*#101-0.53252*#102]
G01 X9.3063Y8.8084Z[#100+-0.1000]
#102=[#519+0.53699*#510-0.53699*#519]
#101=[#520+0.53699*#511-0.53699*#520]
#100=[#102+0.53212*#101-0.53212*#102]
G01 X9.3042Y8.8115Z[#100+-0.1000]
G00 Z1.0000
G00 X3.7434Y13.1464
#102=[#527+0.70791*#518-0.70791*#527]
#101=[#528+0.70791*#519-0.70791*#528]
#100=[#102+0.48304*#101-0.48304*#102]
G01 Z[#100+-0.1000]
#102=[#527+0.71451*#518-0.71451*#527]
#101=[#528+0.71451*#519-0.71451*#528]
#100=[#102+0.48738*#101-0.48738*#102]
G01 X3.7664Y13.1119Z[#100+-0.1000]
#102=[#519+0.39070*#510-0.39070*#519]
#101=[#520+0.39070*#511-0.39070*#520]
#100=[#102+0.15438*#101-0.15438*#102]
G01 X7.30193Y9.57637Z[#100+-0.1000] ;segmented line. Max segment length set to 5
#102=[#519+0.58572*#510-0.58572*#519]
#101=[#520+0.58572*#511-0.58572*#520]
#100=[#102+0.34675*#101-0.34675*#102]
G01 X8.3216Y8.5567Z[#100+-0.1000]
#102=[#519+0.59018*#510-0.59018*#519]
#101=[#520+0.59018*#511-0.59018*#520]
#100=[#102+0.35079*#101-0.35079*#102]
G01 X8.3430Y8.5334Z[#100+-0.1000]
#102=[#519+0.59668*#510-0.59668*#519]
#101=[#520+0.59668*#511-0.59668*#520]
#100=[#102+0.35562*#101-0.35562*#102]
G01 X8.3686Y8.4994Z[#100+-0.1000]
#102=[#519+0.60068*#510-0.60068*#519]
#101=[#520+0.60068*#511-0.60068*#520]
#100=[#102+0.35803*#101-0.35803*#102]
G01 X8.3814Y8.4785Z[#100+-0.1000]
#102=[#519+0.60387*#510-0.60387*#519]
#101=[#520+0.60387*#511-0.60387*#520]
#100=[#102+0.35977*#101-0.35977*#102]
G01 X8.3906Y8.4618Z[#100+-0.1000]
#102=[#519+0.60798*#510-0.60798*#519]
#101=[#520+0.60798*#511-0.60798*#520]
#100=[#102+0.36169*#101-0.36169*#102]
G01 X8.4008Y8.4403Z[#100+-0.1000]
#102=[#519+0.61129*#510-0.61129*#519]
#101=[#520+0.61129*#511-0.61129*#520]
#100=[#102+0.36299*#101-0.36299*#102]
G01 X8.4077Y8.4230Z[#100+-0.1000]
#102=[#519+0.61592*#510-0.61592*#519]
#101=[#520+0.61592*#511-0.61592*#520]
#100=[#102+0.36456*#101-0.36456*#102]
G01 X8.4160Y8.3988Z[#100+-0.1000]
#102=[#519+0.62160*#510-0.62160*#519]
#101=[#520+0.62160*#511-0.62160*#520]
#100=[#102+0.36599*#101-0.36599*#102]
G01 X8.4236Y8.3691Z[#100+-0.1000]
#102=[#519+0.62956*#510-0.62956*#519]
#101=[#520+0.62956*#511-0.62956*#520]
#100=[#102+0.36722*#101-0.36722*#102]
G01 X8.4301Y8.3275Z[#100+-0.1000]
#102=[#519+0.63671*#510-0.63671*#519]
#101=[#520+0.63671*#511-0.63671*#520]
#100=[#102+0.36758*#101-0.36758*#102]
G01 X8.4320Y8.2901Z[#100+-0.1000]
#102=[#510+0.59299*#501-0.59299*#510]
#101=[#511+0.59299*#502-0.59299*#511]
#100=[#102+0.36758*#101-0.36758*#102]
G01 X8.43200Y3.29010Z[#100+-0.1000] ;segmented line. Max segment length set to 5
#102=[#510+0.68077*#501-0.68077*#510]
#101=[#511+0.68077*#502-0.68077*#511]
#100=[#102+0.36758*#101-0.36758*#102]
G01 X8.4320Y2.8311Z[#100+-0.1000]
#102=[#510+0.68854*#501-0.68854*#510]
#101=[#511+0.68854*#502-0.68854*#511]
#100=[#102+0.36910*#101-0.36910*#102]
G01 X8.4401Y2.7905Z[#100+-0.1000]
#102=[#519+0.73226*#510-0.73226*#519]
#101=[#520+0.73226*#511-0.73226*#520]
#100=[#102+0.36909*#101-0.36909*#102]
G01 X8.44001Y7.79050Z[#100+-0.1000] ;segmented line. Max segment length set to 5
#102=[#519+0.60620*#510-0.60620*#519]
#101=[#520+0.60620*#511-0.60620*#520]
#100=[#102+0.36909*#101-0.36909*#102]
G01 X8.4400Y8.4496Z[#100+-0.1000]
#102=[#527+0.93000*#518-0.93000*#527]
#101=[#528+0.93000*#519-0.93000*#528]
#100=[#102+0.70210*#101-0.70210*#102]
G01 X4.90454Y11.98521Z[#100+-0.1000] ;segmented line. Max segment length set to 5
#102=[#527+0.70791*#518-0.70791*#527]
#101=[#528+0.70791*#519-0.70791*#528]
#100=[#102+0.48304*#101-0.48304*#102]
G01 X3.7434Y13.1464Z[#100+-0.1000]
G00 Z1.0000
G00 X3.6469Y13.2937
#102=[#527+0.67974*#518-0.67974*#527]
#101=[#528+0.67974*#519-0.67974*#528]
#100=[#102+0.46483*#101-0.46483*#102]
G01 Z[#100+-0.1000]
#102=[#527+0.68053*#518-0.68053*#527]
#101=[#528+0.68053*#519-0.68053*#528]
#100=[#102+0.46498*#101-0.46498*#102]
G01 X3.6477Y13.2896Z[#100+-0.1000]
#102=[#527+0.68112*#518-0.68112*#527]
#101=[#528+0.68112*#519-0.68112*#528]
#100=[#102+0.46538*#101-0.46538*#102]
G01 X3.6498Y13.2865Z[#100+-0.1000]
#102=[#527+0.67974*#518-0.67974*#527]
#101=[#528+0.67974*#519-0.67974*#528]
#100=[#102+0.46483*#101-0.46483*#102]
G01 X3.6469Y13.2937Z[#100+-0.1000]
G00 Z1.0000
G00 X2.7119Y14.8019
#102=[#527+0.39129*#518-0.39129*#527]
#101=[#528+0.39129*#519-0.39129*#528]
#100=[#102+0.28844*#101-0.28844*#102]
G01 Z[#100+-0.1000]
#102=[#527+0.39360*#518-0.39360*#527]
#101=[#528+0.39360*#519-0.39360*#528]
#100=[#102+0.29340*#101-0.29340*#102]
G01 X2.7382Y14.7898Z[#100+-0.1000]
#102=[#527+0.39534*#518-0.39534*#527]
#101=[#528+0.39534*#519-0.39534*#528]
#100=[#102+0.29657*#101-0.29657*#102]
G01 X2.7550Y14.7807Z[#100+-0.1000]
#102=[#527+0.39781*#518-0.39781*#527]
#101=[#528+0.39781*#519-0.39781*#528]
#100=[#102+0.30049*#101-0.30049*#102]
G01 X2.7758Y14.7678Z[#100+-0.1000]
#102=[#527+0.40060*#518-0.40060*#527]
#101=[#528+0.40060*#519-0.40060*#528]
#100=[#102+0.30432*#101-0.30432*#102]
G01 X2.7961Y14.7532Z[#100+-0.1000]
#102=[#527+0.40271*#518-0.40271*#527]
#101=[#528+0.40271*#519-0.40271*#528]
#100=[#102+0.30691*#101-0.30691*#102]
G01 X2.8098Y14.7422Z[#100+-0.1000]
#102=[#527+0.40518*#518-0.40518*#527]
#101=[#528+0.40518*#519-0.40518*#528]
#100=[#102+0.30964*#101-0.30964*#102]
G01 X2.8243Y14.7293Z[#100+-0.1000]
#102=[#527+0.40680*#518-0.40680*#527]
#101=[#528+0.40680*#519-0.40680*#528]
#100=[#102+0.31130*#101-0.31130*#102]
G01 X2.8331Y14.7208Z[#100+-0.1000]
#102=[#527+0.41026*#518-0.41026*#527]
#101=[#528+0.41026*#519-0.41026*#528]
#100=[#102+0.31449*#101-0.31449*#102]
G01 X2.8500Y14.7027Z[#100+-0.1000]
#102=[#527+0.41390*#518-0.41390*#527]
#101=[#528+0.41390*#519-0.41390*#528]
#100=[#102+0.31742*#101-0.31742*#102]
G01 X2.8655Y14.6837Z[#100+-0.1000]
#102=[#527+0.41776*#518-0.41776*#527]
#101=[#528+0.41776*#519-0.41776*#528]
#100=[#102+0.32019*#101-0.32019*#102]
G01 X2.8802Y14.6635Z[#100+-0.1000]
#102=[#527+0.42176*#518-0.42176*#527]
#101=[#528+0.42176*#519-0.42176*#528]
#100=[#102+0.32260*#101-0.32260*#102]
G01 X2.8930Y14.6426Z[#100+-0.1000]
#102=[#527+0.42495*#518-0.42495*#527]
#101=[#528+0.42495*#519-0.42495*#528]
#100=[#102+0.32434*#101-0.32434*#102]
G01 X2.9022Y14.6259Z[#100+-0.1000]
#102=[#527+0.42906*#518-0.42906*#527]
#101=[#528+0.42906*#519-0.42906*#528]
#100=[#102+0.32624*#101-0.32624*#102]
G01 X2.9123Y14.6044Z[#100+-0.1000]
#102=[#527+0.43463*#518-0.43463*#527]
#101=[#528+0.43463*#519-0.43463*#528]
#100=[#102+0.32836*#101-0.32836*#102]
G01 X2.9235Y14.5753Z[#100+-0.1000]
#102=[#527+0.43700*#518-0.43700*#527]
#101=[#528+0.43700*#519-0.43700*#528]
#100=[#102+0.32911*#101-0.32911*#102]
G01 X2.9275Y14.5629Z[#100+-0.1000]
#102=[#527+0.44268*#518-0.44268*#527]
#101=[#528+0.44268*#519-0.44268*#528]
#100=[#102+0.33057*#101-0.33057*#102]
G01 X2.9352Y14.5332Z[#100+-0.1000]
#102=[#527+0.45066*#518-0.45066*#527]
#101=[#528+0.45066*#519-0.45066*#528]
#100=[#102+0.33179*#101-0.33179*#102]
G01 X2.9417Y14.4915Z[#100+-0.1000]
#102=[#527+0.45544*#518-0.45544*#527]
#101=[#528+0.45544*#519-0.45544*#528]
#100=[#102+0.33209*#101-0.33209*#102]
G01 X2.9433Y14.4665Z[#100+-0.1000]
#102=[#527+0.46334*#518-0.46334*#527]
#101=[#528+0.46334*#519-0.46334*#528]
#100=[#102+0.33215*#101-0.33215*#102]
G01 X2.9436Y14.4252Z[#100+-0.1000]
#102=[#527+0.48789*#518-0.48789*#527]
#101=[#528+0.48789*#519-0.48789*#528]
#100=[#102+0.33670*#101-0.33670*#102]
G01 X2.9677Y14.2968Z[#100+-0.1000]
#102=[#527+0.50511*#518-0.50511*#527]
#101=[#528+0.50511*#519-0.50511*#528]
#100=[#102+0.34762*#101-0.34762*#102]
G01 X3.0256Y14.2068Z[#100+-0.1000]
#102=[#527+0.51637*#518-0.51637*#527]
#101=[#528+0.51637*#519-0.51637*#528]
#100=[#102+0.36388*#101-0.36388*#102]
G01 X3.1118Y14.1479Z[#100+-0.1000]
#102=[#527+0.52203*#518-0.52203*#527]
#101=[#528+0.52203*#519-0.52203*#528]
#100=[#102+0.39143*#101-0.39143*#102]
G01 X3.2578Y14.1183Z[#100+-0.1000]
#102=[#527+0.52278*#518-0.52278*#527]
#101=[#528+0.52278*#519-0.52278*#528]
#100=[#102+0.39759*#101-0.39759*#102]
G01 X3.2905Y14.1144Z[#100+-0.1000]
#102=[#527+0.52370*#518-0.52370*#527]
#101=[#528+0.52370*#519-0.52370*#528]
#100=[#102+0.40212*#101-0.40212*#102]
G01 X3.3145Y14.1096Z[#100+-0.1000]
#102=[#527+0.52486*#518-0.52486*#527]
#101=[#528+0.52486*#519-0.52486*#528]
#100=[#102+0.40650*#101-0.40650*#102]
G01 X3.3377Y14.1035Z[#100+-0.1000]
#102=[#527+0.52643*#518-0.52643*#527]
#101=[#528+0.52643*#519-0.52643*#528]
#100=[#102+0.41105*#101-0.41105*#102]
G01 X3.3618Y14.0953Z[#100+-0.1000]
#102=[#527+0.52777*#518-0.52777*#527]
#101=[#528+0.52777*#519-0.52777*#528]
#100=[#102+0.41431*#101-0.41431*#102]
G01 X3.3791Y14.0883Z[#100+-0.1000]
#102=[#527+0.52970*#518-0.52970*#527]
#101=[#528+0.52970*#519-0.52970*#528]
#100=[#102+0.41839*#101-0.41839*#102]
G01 X3.4007Y14.0782Z[#100+-0.1000]
#102=[#527+0.53146*#518-0.53146*#527]
#101=[#528+0.53146*#519-0.53146*#528]
#100=[#102+0.42154*#101-0.42154*#102]
G01 X3.4174Y14.0690Z[#100+-0.1000]
#102=[#527+0.53391*#518-0.53391*#527]
#101=[#528+0.53391*#519-0.53391*#528]
#100=[#102+0.42546*#101-0.42546*#102]
G01 X3.4382Y14.0562Z[#100+-0.1000]
#102=[#527+0.53672*#518-0.53672*#527]
#101=[#528+0.53672*#519-0.53672*#528]
#100=[#102+0.42929*#101-0.42929*#102]
G01 X3.4585Y14.0415Z[#100+-0.1000]
#102=[#527+0.53969*#518-0.53969*#527]
#101=[#528+0.53969*#519-0.53969*#528]
#100=[#102+0.43287*#101-0.43287*#102]
G01 X3.4775Y14.0260Z[#100+-0.1000]
#102=[#527+0.54292*#518-0.54292*#527]
#101=[#528+0.54292*#519-0.54292*#528]
#100=[#102+0.43629*#101-0.43629*#102]
G01 X3.4956Y14.0091Z[#100+-0.1000]
#102=[#527+0.54737*#518-0.54737*#527]
#101=[#528+0.54737*#519-0.54737*#528]
#100=[#102+0.44033*#101-0.44033*#102]
G01 X3.5170Y13.9858Z[#100+-0.1000]
#102=[#527+0.55388*#518-0.55388*#527]
#101=[#528+0.55388*#519-0.55388*#528]
#100=[#102+0.44516*#101-0.44516*#102]
G01 X3.5426Y13.9518Z[#100+-0.1000]
#102=[#527+0.55785*#518-0.55785*#527]
#101=[#528+0.55785*#519-0.55785*#528]
#100=[#102+0.44757*#101-0.44757*#102]
G01 X3.5554Y13.9310Z[#100+-0.1000]
#102=[#527+0.56107*#518-0.56107*#527]
#101=[#528+0.56107*#519-0.56107*#528]
#100=[#102+0.44931*#101-0.44931*#102]
G01 X3.5646Y13.9142Z[#100+-0.1000]
#102=[#527+0.56518*#518-0.56518*#527]
#101=[#528+0.56518*#519-0.56518*#528]
#100=[#102+0.45123*#101-0.45123*#102]
G01 X3.5748Y13.8927Z[#100+-0.1000]
#102=[#527+0.56849*#518-0.56849*#527]
#101=[#528+0.56849*#519-0.56849*#528]
#100=[#102+0.45253*#101-0.45253*#102]
G01 X3.5817Y13.8754Z[#100+-0.1000]
#102=[#527+0.57310*#518-0.57310*#527]
#101=[#528+0.57310*#519-0.57310*#528]
#100=[#102+0.45410*#101-0.45410*#102]
G01 X3.5900Y13.8513Z[#100+-0.1000]
#102=[#527+0.57754*#518-0.57754*#527]
#101=[#528+0.57754*#519-0.57754*#528]
#100=[#102+0.45525*#101-0.45525*#102]
G01 X3.5961Y13.8281Z[#100+-0.1000]
#102=[#527+0.58450*#518-0.58450*#527]
#101=[#528+0.58450*#519-0.58450*#528]
#100=[#102+0.45649*#101-0.45649*#102]
G01 X3.6027Y13.7917Z[#100+-0.1000]
#102=[#527+0.58916*#518-0.58916*#527]
#101=[#528+0.58916*#519-0.58916*#528]
#100=[#102+0.45695*#101-0.45695*#102]
G01 X3.6051Y13.7673Z[#100+-0.1000]
#102=[#527+0.59389*#518-0.59389*#527]
#101=[#528+0.59389*#519-0.59389*#528]
#100=[#102+0.45712*#101-0.45712*#102]
G01 X3.6060Y13.7426Z[#100+-0.1000]
#102=[#527+0.64046*#518-0.64046*#527]
#101=[#528+0.64046*#519-0.64046*#528]
#100=[#102+0.45712*#101-0.45712*#102]
G01 X3.6060Y13.4991Z[#100+-0.1000]
#102=[#527+0.64822*#518-0.64822*#527]
#101=[#528+0.64822*#519-0.64822*#528]
#100=[#102+0.45864*#101-0.45864*#102]
G01 X3.6141Y13.4585Z[#100+-0.1000]
#102=[#527+0.51788*#518-0.51788*#527]
#101=[#528+0.51788*#519-0.51788*#528]
#100=[#102+0.45863*#101-0.45863*#102]
G01 X3.6140Y14.1400Z[#100+-0.1000]
#102=[#527+0.51788*#518-0.51788*#527]
#101=[#528+0.51788*#519-0.51788*#528]
#100=[#102+0.38316*#101-0.38316*#102]
G01 X3.2140Y14.1400Z[#100+-0.1000]
#102=[#527+0.51761*#518-0.51761*#527]
#101=[#528+0.51761*#519-0.51761*#528]
#100=[#102+0.37824*#101-0.37824*#102]
G01 X3.1879Y14.1414Z[#100+-0.1000]
#102=[#527+0.51685*#518-0.51685*#527]
#101=[#528+0.51685*#519-0.51685*#528]
#100=[#102+0.37337*#101-0.37337*#102]
G01 X3.1621Y14.1454Z[#100+-0.1000]
#102=[#527+0.51555*#518-0.51555*#527]
#101=[#528+0.51555*#519-0.51555*#528]
#100=[#102+0.36862*#101-0.36862*#102]
G01 X3.1369Y14.1522Z[#100+-0.1000]
#102=[#527+0.51377*#518-0.51377*#527]
#101=[#528+0.51377*#519-0.51377*#528]
#100=[#102+0.36401*#101-0.36401*#102]
G01 X3.1125Y14.1615Z[#100+-0.1000]
#102=[#527+0.51149*#518-0.51149*#527]
#101=[#528+0.51149*#519-0.51149*#528]
#100=[#102+0.35960*#101-0.35960*#102]
G01 X3.0891Y14.1734Z[#100+-0.1000]
#102=[#527+0.50876*#518-0.50876*#527]
#101=[#528+0.50876*#519-0.50876*#528]
#100=[#102+0.35545*#101-0.35545*#102]
G01 X3.0671Y14.1877Z[#100+-0.1000]
#102=[#527+0.50560*#518-0.50560*#527]
#101=[#528+0.50560*#519-0.50560*#528]
#100=[#102+0.35160*#101-0.35160*#102]
G01 X3.0467Y14.2042Z[#100+-0.1000]
#102=[#527+0.50207*#518-0.50207*#527]
#101=[#528+0.50207*#519-0.50207*#528]
#100=[#102+0.34811*#101-0.34811*#102]
G01 X3.0282Y14.2227Z[#100+-0.1000]
#102=[#527+0.49816*#518-0.49816*#527]
#101=[#528+0.49816*#519-0.49816*#528]
#100=[#102+0.34500*#101-0.34500*#102]
G01 X3.0117Y14.2431Z[#100+-0.1000]
#102=[#527+0.49396*#518-0.49396*#527]
#101=[#528+0.49396*#519-0.49396*#528]
#100=[#102+0.34230*#101-0.34230*#102]
G01 X2.9974Y14.2651Z[#100+-0.1000]
#102=[#527+0.48948*#518-0.48948*#527]
#101=[#528+0.48948*#519-0.48948*#528]
#100=[#102+0.34005*#101-0.34005*#102]
G01 X2.9855Y14.2885Z[#100+-0.1000]
#102=[#527+0.48481*#518-0.48481*#527]
#101=[#528+0.48481*#519-0.48481*#528]
#100=[#102+0.33830*#101-0.33830*#102]
G01 X2.9762Y14.3129Z[#100+-0.1000]
#102=[#527+0.47999*#518-0.47999*#527]
#101=[#528+0.47999*#519-0.47999*#528]
#100=[#102+0.33702*#101-0.33702*#102]
G01 X2.9694Y14.3381Z[#100+-0.1000]
#102=[#527+0.47506*#518-0.47506*#527]
#101=[#528+0.47506*#519-0.47506*#528]
#100=[#102+0.33626*#101-0.33626*#102]
G01 X2.9654Y14.3639Z[#100+-0.1000]
#102=[#527+0.47007*#518-0.47007*#527]
#101=[#528+0.47007*#519-0.47007*#528]
#100=[#102+0.33600*#101-0.33600*#102]
G01 X2.9640Y14.3900Z[#100+-0.1000]
#102=[#527+0.39357*#518-0.39357*#527]
#101=[#528+0.39357*#519-0.39357*#528]
#100=[#102+0.33600*#101-0.33600*#102]
G01 X2.9640Y14.7900Z[#100+-0.1000]
#102=[#527+0.39351*#518-0.39351*#527]
#101=[#528+0.39351*#519-0.39351*#528]
#100=[#102+0.30538*#101-0.30538*#102]
G01 X2.8017Y14.7903Z[#100+-0.1000]
#102=[#527+0.39315*#518-0.39315*#527]
#101=[#528+0.39315*#519-0.39315*#528]
#100=[#102+0.29930*#101-0.29930*#102]
G01 X2.7695Y14.7922Z[#100+-0.1000]
#102=[#527+0.39286*#518-0.39286*#527]
#101=[#528+0.39286*#519-0.39286*#528]
#100=[#102+0.29708*#101-0.29708*#102]
G01 X2.7577Y14.7937Z[#100+-0.1000]
#102=[#527+0.39232*#518-0.39232*#527]
#101=[#528+0.39232*#519-0.39232*#528]
#100=[#102+0.29342*#101-0.29342*#102]
G01 X2.7383Y14.7965Z[#100+-0.1000]
#102=[#527+0.39129*#518-0.39129*#527]
#101=[#528+0.39129*#519-0.39129*#528]
#100=[#102+0.28844*#101-0.28844*#102]
G01 X2.7119Y14.8019Z[#100+-0.1000]
G00 Z1.0000
G00 X2.6385Y14.8258
#102=[#527+0.38672*#518-0.38672*#527]
#101=[#528+0.38672*#519-0.38672*#528]
#100=[#102+0.27459*#101-0.27459*#102]
G01 Z[#100+-0.1000]
#102=[#527+0.38714*#518-0.38714*#527]
#101=[#528+0.38714*#519-0.38714*#528]
#100=[#102+0.27518*#101-0.27518*#102]
G01 X2.6416Y14.8236Z[#100+-0.1000]
#102=[#527+0.38735*#518-0.38735*#527]
#101=[#528+0.38735*#519-0.38735*#528]
#100=[#102+0.27610*#101-0.27610*#102]
G01 X2.6465Y14.8225Z[#100+-0.1000]
#102=[#527+0.38672*#518-0.38672*#527]
#101=[#528+0.38672*#519-0.38672*#528]
#100=[#102+0.27459*#101-0.27459*#102]
G01 X2.6385Y14.8258Z[#100+-0.1000]
G00 Z1.0000
G00 X1.4574Y15.9604
#102=[#527+0.16972*#518-0.16972*#527]
#101=[#528+0.16972*#519-0.16972*#528]
#100=[#102+0.05177*#101-0.05177*#102]
G01 Z[#100+-0.1000]
#102=[#527+0.17632*#518-0.17632*#527]
#101=[#528+0.17632*#519-0.17632*#528]
#100=[#102+0.05611*#101-0.05611*#102]
G01 X1.4804Y15.9259Z[#100+-0.1000]
#102=[#527+0.36442*#518-0.36442*#527]
#101=[#528+0.36442*#519-0.36442*#528]
#100=[#102+0.24165*#101-0.24165*#102]
G01 X2.4639Y14.9424Z[#100+-0.1000]
#102=[#527+0.36888*#518-0.36888*#527]
#101=[#528+0.36888*#519-0.36888*#528]
#100=[#102+0.24824*#101-0.24824*#102]
G01 X2.4988Y14.9191Z[#100+-0.1000]
#102=[#527+0.16972*#518-0.16972*#527]
#101=[#528+0.16972*#519-0.16972*#528]
#100=[#102+0.05177*#101-0.05177*#102]
G01 X1.4574Y15.9604Z[#100+-0.1000]
G00 Z1.0000
G00 X1.3609Y16.1077
#102=[#527+0.14155*#518-0.14155*#527]
#101=[#528+0.14155*#519-0.14155*#528]
#100=[#102+0.03356*#101-0.03356*#102]
G01 Z[#100+-0.1000]
#102=[#527+0.14233*#518-0.14233*#527]
#101=[#528+0.14233*#519-0.14233*#528]
#100=[#102+0.03371*#101-0.03371*#102]
G01 X1.3617Y16.1036Z[#100+-0.1000]
#102=[#527+0.14293*#518-0.14293*#527]
#101=[#528+0.14293*#519-0.14293*#528]
#100=[#102+0.03411*#101-0.03411*#102]
G01 X1.3638Y16.1005Z[#100+-0.1000]
#102=[#527+0.14155*#518-0.14155*#527]
#101=[#528+0.14155*#519-0.14155*#528]
#100=[#102+0.03356*#101-0.03356*#102]
G01 X1.3609Y16.1077Z[#100+-0.1000]
G00 Z1.0000
G00 X1.4781Y16.2711
#102=[#527+0.11030*#518-0.11030*#527]
#101=[#528+0.11030*#519-0.11030*#528]
#100=[#102+0.05567*#101-0.05567*#102]
G01 Z[#100+-0.1000]
#102=[#527+0.11502*#518-0.11502*#527]
#101=[#528+0.11502*#519-0.11502*#528]
#100=[#102+0.05594*#101-0.05594*#102]
G01 X1.4795Y16.2464Z[#100+-0.1000]
#102=[#527+0.12097*#518-0.12097*#527]
#101=[#528+0.12097*#519-0.12097*#528]
#100=[#102+0.05682*#101-0.05682*#102]
G01 X1.4842Y16.2153Z[#100+-0.1000]
#102=[#527+0.12596*#518-0.12596*#527]
#101=[#528+0.12596*#519-0.12596*#528]
#100=[#102+0.05807*#101-0.05807*#102]
G01 X1.4908Y16.1892Z[#100+-0.1000]
#102=[#527+0.13178*#518-0.13178*#527]
#101=[#528+0.13178*#519-0.13178*#528]
#100=[#102+0.06014*#101-0.06014*#102]
G01 X1.5018Y16.1588Z[#100+-0.1000]
#102=[#527+0.13594*#518-0.13594*#527]
#101=[#528+0.13594*#519-0.13594*#528]
#100=[#102+0.06211*#101-0.06211*#102]
G01 X1.5122Y16.1370Z[#100+-0.1000]
#102=[#527+0.14122*#518-0.14122*#527]
#101=[#528+0.14122*#519-0.14122*#528]
#100=[#102+0.06518*#101-0.06518*#102]
G01 X1.5285Y16.1094Z[#100+-0.1000]
#102=[#527+0.14608*#518-0.14608*#527]
#101=[#528+0.14608*#519-0.14608*#528]
#100=[#102+0.06877*#101-0.06877*#102]
G01 X1.5475Y16.0840Z[#100+-0.1000]
#102=[#527+0.14926*#518-0.14926*#527]
#101=[#528+0.14926*#519-0.14926*#528]
#100=[#102+0.07160*#101-0.07160*#102]
G01 X1.5625Y16.0674Z[#100+-0.1000]
#102=[#527+0.34807*#518-0.34807*#527]
#101=[#528+0.34807*#519-0.34807*#528]
#100=[#102+0.26769*#101-0.26769*#102]
G01 X2.6019Y15.0279Z[#100+-0.1000]
#102=[#527+0.35159*#518-0.35159*#527]
#101=[#528+0.35159*#519-0.35159*#528]
#100=[#102+0.27148*#101-0.27148*#102]
G01 X2.6220Y15.0095Z[#100+-0.1000]
#102=[#527+0.35572*#518-0.35572*#527]
#101=[#528+0.35572*#519-0.35572*#528]
#100=[#102+0.27704*#101-0.27704*#102]
G01 X2.6515Y14.9879Z[#100+-0.1000]
#102=[#527+0.35834*#518-0.35834*#527]
#101=[#528+0.35834*#519-0.35834*#528]
#100=[#102+0.28148*#101-0.28148*#102]
G01 X2.6750Y14.9742Z[#100+-0.1000]
#102=[#527+0.36033*#518-0.36033*#527]
#101=[#528+0.36033*#519-0.36033*#528]
#100=[#102+0.28559*#101-0.28559*#102]
G01 X2.6968Y14.9638Z[#100+-0.1000]
#102=[#527+0.36266*#518-0.36266*#527]
#101=[#528+0.36266*#519-0.36266*#528]
#100=[#102+0.29215*#101-0.29215*#102]
G01 X2.7316Y14.9516Z[#100+-0.1000]
#102=[#527+0.36369*#518-0.36369*#527]
#101=[#528+0.36369*#519-0.36369*#528]
#100=[#102+0.29625*#101-0.29625*#102]
G01 X2.7533Y14.9462Z[#100+-0.1000]
#102=[#527+0.36450*#518-0.36450*#527]
#101=[#528+0.36450*#519-0.36450*#528]
#100=[#102+0.30123*#101-0.30123*#102]
G01 X2.7797Y14.9420Z[#100+-0.1000]
#102=[#527+0.36488*#518-0.36488*#527]
#101=[#528+0.36488*#519-0.36488*#528]
#100=[#102+0.30770*#101-0.30770*#102]
G01 X2.8140Y14.9400Z[#100+-0.1000]
#102=[#527+0.36488*#518-0.36488*#527]
#101=[#528+0.36488*#519-0.36488*#528]
#100=[#102+0.36430*#101-0.36430*#102]
G01 X3.1140Y14.9400Z[#100+-0.1000]
#102=[#527+0.47007*#518-0.47007*#527]
#101=[#528+0.47007*#519-0.47007*#528]
#100=[#102+0.36430*#101-0.36430*#102]
G01 X3.1140Y14.3900Z[#100+-0.1000]
#102=[#527+0.47206*#518-0.47206*#527]
#101=[#528+0.47206*#519-0.47206*#528]
#100=[#102+0.36439*#101-0.36439*#102]
G01 X3.1145Y14.3796Z[#100+-0.1000]
#102=[#527+0.47405*#518-0.47405*#527]
#101=[#528+0.47405*#519-0.47405*#528]
#100=[#102+0.36471*#101-0.36471*#102]
G01 X3.1162Y14.3692Z[#100+-0.1000]
#102=[#527+0.47598*#518-0.47598*#527]
#101=[#528+0.47598*#519-0.47598*#528]
#100=[#102+0.36522*#101-0.36522*#102]
G01 X3.1189Y14.3591Z[#100+-0.1000]
#102=[#527+0.47783*#518-0.47783*#527]
#101=[#528+0.47783*#519-0.47783*#528]
#100=[#102+0.36592*#101-0.36592*#102]
G01 X3.1226Y14.3494Z[#100+-0.1000]
#102=[#527+0.47963*#518-0.47963*#527]
#101=[#528+0.47963*#519-0.47963*#528]
#100=[#102+0.36683*#101-0.36683*#102]
G01 X3.1274Y14.3400Z[#100+-0.1000]
#102=[#527+0.48131*#518-0.48131*#527]
#101=[#528+0.48131*#519-0.48131*#528]
#100=[#102+0.36790*#101-0.36790*#102]
G01 X3.1331Y14.3312Z[#100+-0.1000]
#102=[#527+0.48286*#518-0.48286*#527]
#101=[#528+0.48286*#519-0.48286*#528]
#100=[#102+0.36915*#101-0.36915*#102]
G01 X3.1397Y14.3231Z[#100+-0.1000]
#102=[#527+0.48428*#518-0.48428*#527]
#101=[#528+0.48428*#519-0.48428*#528]
#100=[#102+0.37054*#101-0.37054*#102]
G01 X3.1471Y14.3157Z[#100+-0.1000]
#102=[#527+0.48554*#518-0.48554*#527]
#101=[#528+0.48554*#519-0.48554*#528]
#100=[#102+0.37207*#101-0.37207*#102]
G01 X3.1552Y14.3091Z[#100+-0.1000]
#102=[#527+0.48663*#518-0.48663*#527]
#101=[#528+0.48663*#519-0.48663*#528]
#100=[#102+0.37373*#101-0.37373*#102]
G01 X3.1640Y14.3034Z[#100+-0.1000]
#102=[#527+0.48755*#518-0.48755*#527]
#101=[#528+0.48755*#519-0.48755*#528]
#100=[#102+0.37550*#101-0.37550*#102]
G01 X3.1734Y14.2986Z[#100+-0.1000]
#102=[#527+0.48826*#518-0.48826*#527]
#101=[#528+0.48826*#519-0.48826*#528]
#100=[#102+0.37733*#101-0.37733*#102]
G01 X3.1831Y14.2949Z[#100+-0.1000]
#102=[#527+0.48877*#518-0.48877*#527]
#101=[#528+0.48877*#519-0.48877*#528]
#100=[#102+0.37924*#101-0.37924*#102]
G01 X3.1932Y14.2922Z[#100+-0.1000]
#102=[#527+0.48910*#518-0.48910*#527]
#101=[#528+0.48910*#519-0.48910*#528]
#100=[#102+0.38120*#101-0.38120*#102]
G01 X3.2036Y14.2905Z[#100+-0.1000]
#102=[#527+0.48919*#518-0.48919*#527]
#101=[#528+0.48919*#519-0.48919*#528]
#100=[#102+0.38316*#101-0.38316*#102]
G01 X3.2140Y14.2900Z[#100+-0.1000]
#102=[#527+0.48919*#518-0.48919*#527]
#101=[#528+0.48919*#519-0.48919*#528]
#100=[#102+0.48692*#101-0.48692*#102]
G01 X3.7640Y14.2900Z[#100+-0.1000]
#102=[#527+0.64755*#518-0.64755*#527]
#101=[#528+0.64755*#519-0.64755*#528]
#100=[#102+0.48692*#101-0.48692*#102]
G01 X3.7640Y13.4620Z[#100+-0.1000]
#102=[#527+0.65224*#518-0.65224*#527]
#101=[#528+0.65224*#519-0.65224*#528]
#100=[#102+0.48713*#101-0.48713*#102]
G01 X3.7651Y13.4375Z[#100+-0.1000]
#102=[#527+0.65966*#518-0.65966*#527]
#101=[#528+0.65966*#519-0.65966*#528]
#100=[#102+0.48821*#101-0.48821*#102]
G01 X3.7708Y13.3987Z[#100+-0.1000]
#102=[#527+0.66415*#518-0.66415*#527]
#101=[#528+0.66415*#519-0.66415*#528]
#100=[#102+0.48934*#101-0.48934*#102]
G01 X3.7768Y13.3752Z[#100+-0.1000]
#102=[#527+0.66997*#518-0.66997*#527]
#101=[#528+0.66997*#519-0.66997*#528]
#100=[#102+0.49141*#101-0.49141*#102]
G01 X3.7878Y13.3448Z[#100+-0.1000]
#102=[#527+0.67414*#518-0.67414*#527]
#101=[#528+0.67414*#519-0.67414*#528]
#100=[#102+0.49338*#101-0.49338*#102]
G01 X3.7982Y13.3230Z[#100+-0.1000]
#102=[#527+0.67863*#518-0.67863*#527]
#101=[#528+0.67863*#519-0.67863*#528]
#100=[#102+0.49596*#101-0.49596*#102]
G01 X3.8119Y13.2995Z[#100+-0.1000]
#102=[#527+0.68427*#518-0.68427*#527]
#101=[#528+0.68427*#519-0.68427*#528]
#100=[#102+0.50004*#101-0.50004*#102]
G01 X3.8335Y13.2700Z[#100+-0.1000]
#102=[#527+0.68812*#518-0.68812*#527]
#101=[#528+0.68812*#519-0.68812*#528]
#100=[#102+0.50351*#101-0.50351*#102]
G01 X3.8519Y13.2499Z[#100+-0.1000]
#102=[#519+0.36432*#510-0.36432*#519]
#101=[#520+0.36432*#511-0.36432*#520]
#100=[#102+0.17050*#101-0.17050*#102]
G01 X7.38740Y9.71433Z[#100+-0.1000] ;segmented line. Max segment length set to 5
#102=[#519+0.59433*#510-0.59433*#519]
#101=[#520+0.59433*#511-0.59433*#520]
#100=[#102+0.39738*#101-0.39738*#102]
G01 X8.5900Y8.5117Z[#100+-0.1000]
#102=[#510+0.55061*#501-0.55061*#510]
#101=[#511+0.55061*#502-0.55061*#511]
#100=[#102+0.39738*#101-0.39738*#102]
G01 X8.59000Y3.51170Z[#100+-0.1000] ;segmented line. Max segment length set to 5
#102=[#510+0.68787*#501-0.68787*#510]
#101=[#511+0.68787*#502-0.68787*#511]
#100=[#102+0.39738*#101-0.39738*#102]
G01 X8.5900Y2.7940Z[#100+-0.1000]
#102=[#510+0.69443*#501-0.69443*#510]
#101=[#511+0.69443*#502-0.69443*#511]
#100=[#102+0.39776*#101-0.39776*#102]
G01 X8.5920Y2.7597Z[#100+-0.1000]
#102=[#510+0.69948*#501-0.69948*#510]
#101=[#511+0.69948*#502-0.69948*#511]
#100=[#102+0.39855*#101-0.39855*#102]
G01 X8.5962Y2.7333Z[#100+-0.1000]
#102=[#510+0.70363*#501-0.70363*#510]
#101=[#511+0.70363*#502-0.70363*#511]
#100=[#102+0.39957*#101-0.39957*#102]
G01 X8.6016Y2.7116Z[#100+-0.1000]
#102=[#510+0.71029*#501-0.71029*#510]
#101=[#511+0.71029*#502-0.71029*#511]
#100=[#102+0.40187*#101-0.40187*#102]
G01 X8.6138Y2.6768Z[#100+-0.1000]
#102=[#510+0.71574*#501-0.71574*#510]
#101=[#511+0.71574*#502-0.71574*#511]
#100=[#102+0.40451*#101-0.40451*#102]
G01 X8.6278Y2.6483Z[#100+-0.1000]
#102=[#510+0.71973*#501-0.71973*#510]
#101=[#511+0.71973*#502-0.71973*#511]
#100=[#102+0.40691*#101-0.40691*#102]
G01 X8.6405Y2.6274Z[#100+-0.1000]
#102=[#510+0.72352*#501-0.72352*#510]
#101=[#511+0.72352*#502-0.72352*#511]
#100=[#102+0.40967*#101-0.40967*#102]
G01 X8.6551Y2.6076Z[#100+-0.1000]
#102=[#510+0.72844*#501-0.72844*#510]
#101=[#511+0.72844*#502-0.72844*#511]
#100=[#102+0.41397*#101-0.41397*#102]
G01 X8.6779Y2.5819Z[#100+-0.1000]
#102=[#501+0*#501-0*#501]
#101=[#502+0*#502-0*#502]
#100=[#102+0.79732*#101-0.79732*#102]
G01 X10.7099Y0.5499Z[#100+-0.1000]
#102=[#501+0*#501-0*#501]
#101=[#502+0*#502-0*#502]
#100=[#102+0.80217*#101-0.80217*#102]
G01 X10.7356Y0.5271Z[#100+-0.1000]
#102=[#501+0*#501-0*#501]
#101=[#502+0*#502-0*#502]
#100=[#102+0.80590*#101-0.80590*#102]
G01 X10.7554Y0.5125Z[#100+-0.1000]
#102=[#501+0*#501-0*#501]
#101=[#502+0*#502-0*#502]
#100=[#102+0.80984*#101-0.80984*#102]
G01 X10.7763Y0.4998Z[#100+-0.1000]
#102=[#501+0*#501-0*#501]
#101=[#502+0*#502-0*#502]
#100=[#102+0.81522*#101-0.81522*#102]
G01 X10.8048Y0.4858Z[#100+-0.1000]
#102=[#501+0*#501-0*#501]
#101=[#502+0*#502-0*#502]
#100=[#102+0.82179*#101-0.82179*#102]
G01 X10.8396Y0.4736Z[#100+-0.1000]
#102=[#501+0*#501-0*#501]
#101=[#502+0*#502-0*#502]
#100=[#102+0.82588*#101-0.82588*#102]
G01 X10.8613Y0.4682Z[#100+-0.1000]
#102=[#501+0*#501-0*#501]
#101=[#502+0*#502-0*#502]
#100=[#102+0.83086*#101-0.83086*#102]
G01 X10.8877Y0.4640Z[#100+-0.1000]
#102=[#501+0*#501-0*#501]
#101=[#502+0*#502-0*#502]
#100=[#102+0.83733*#101-0.83733*#102]
G01 X10.9220Y0.4620Z[#100+-0.1000]
#102=[#502+0*#502-0*#502]
#101=[#503+0*#503-0*#503]
#100=[#102+0.78062*#101-0.78062*#102]
G01 X15.92200Y0.46200Z[#100+-0.1000] ;segmented line. Max segment length set to 5
#102=[#503+0*#503-0*#503]
#101=[#504+0*#504-0*#504]
#100=[#102+0.29946*#101-0.29946*#102]
G01 X18.6722Y0.4620Z[#100+-0.1000]
#102=[#503+0*#503-0*#503]
#101=[#504+0*#504-0*#504]
#100=[#102+0.30505*#101-0.30505*#102]
G01 X18.7018Y0.4635Z[#100+-0.1000]
#102=[#503+0*#503-0*#503]
#101=[#504+0*#504-0*#504]
#100=[#102+0.30959*#101-0.30959*#102]
G01 X18.7259Y0.4669Z[#100+-0.1000]
#102=[#503+0*#503-0*#503]
#101=[#504+0*#504-0*#504]
#100=[#102+0.31678*#101-0.31678*#102]
G01 X18.7640Y0.4765Z[#100+-0.1000]
#102=[#503+0*#503-0*#503]
#101=[#504+0*#504-0*#504]
#100=[#102+0.32157*#101-0.32157*#102]
G01 X18.7894Y0.4858Z[#100+-0.1000]
#102=[#503+0*#503-0*#503]
#101=[#504+0*#504-0*#504]
#100=[#102+0.32569*#101-0.32569*#102]
G01 X18.8112Y0.4962Z[#100+-0.1000]
#102=[#503+0*#503-0*#503]
#101=[#504+0*#504-0*#504]
#100=[#102+0.33167*#101-0.33167*#102]
G01 X18.8429Y0.5154Z[#100+-0.1000]
#102=[#503+0*#503-0*#503]
#101=[#504+0*#504-0*#504]
#100=[#102+0.33569*#101-0.33569*#102]
G01 X18.8642Y0.5315Z[#100+-0.1000]
#102=[#503+0*#503-0*#503]
#101=[#504+0*#504-0*#504]
#100=[#102+0.33948*#101-0.33948*#102]
G01 X18.8843Y0.5499Z[#100+-0.1000]
#102=[#512+0.83449*#503-0.83449*#512]
#101=[#513+0.83449*#504-0.83449*#513]
#100=[#102+0.61824*#101-0.61824*#102]
G01 X20.3619Y2.0274Z[#100+-0.1000]
#102=[#512+0.91476*#503-0.91476*#512]
#101=[#513+0.91476*#504-0.91476*#513]
#100=[#102+0.69740*#101-0.69740*#102]
G01 X20.7815Y1.6077Z[#100+-0.1000]
#102=[#512+0.92289*#503-0.92289*#512]
#101=[#513+0.92289*#504-0.92289*#513]
#100=[#102+0.70636*#101-0.70636*#102]
G01 X20.8290Y1.5652Z[#100+-0.1000]
#102=[#512+0.92902*#503-0.92902*#512]
#101=[#513+0.92902*#504-0.92902*#513]
#100=[#102+0.71457*#101-0.71457*#102]
G01 X20.8725Y1.5331Z[#100+-0.1000]
#102=[#512+0.93434*#503-0.93434*#512]
#101=[#513+0.93434*#504-0.93434*#513]
#100=[#102+0.72328*#101-0.72328*#102]
G01 X20.9187Y1.5053Z[#100+-0.1000]
#102=[#512+0.93943*#503-0.93943*#512]
#101=[#513+0.93943*#504-0.93943*#513]
#100=[#102+0.73368*#101-0.73368*#102]
G01 X20.9738Y1.4787Z[#100+-0.1000]
#102=[#512+0.94368*#503-0.94368*#512]
#101=[#513+0.94368*#504-0.94368*#513]
#100=[#102+0.74547*#101-0.74547*#102]
G01 X21.0363Y1.4565Z[#100+-0.1000]
#102=[#512+0.94607*#503-0.94607*#512]
#101=[#513+0.94607*#504-0.94607*#513]
#100=[#102+0.75494*#101-0.75494*#102]
G01 X21.0865Y1.4440Z[#100+-0.1000]
#102=[#512+0.94781*#503-0.94781*#512]
#101=[#513+0.94781*#504-0.94781*#513]
#100=[#102+0.76631*#101-0.76631*#102]
G01 X21.1468Y1.4349Z[#100+-0.1000]
#102=[#512+0.94836*#503-0.94836*#512]
#101=[#513+0.94836*#504-0.94836*#513]
#100=[#102+0.77744*#101-0.77744*#102]
G01 X21.2058Y1.4320Z[#100+-0.1000]
#102=[#513+0.94836*#504-0.94836*#513]
#101=[#514+0.94836*#505-0.94836*#514]
#100=[#102+0.72073*#101-0.72073*#102]
G01 X26.20580Y1.43200Z[#100+-0.1000] ;segmented line. Max segment length set to 5
#102=[#513+0.94836*#504-0.94836*#513]
#101=[#514+0.94836*#505-0.94836*#514]
#100=[#102+0.81132*#101-0.81132*#102]
G01 X26.6860Y1.4320Z[#100+-0.1000]
#102=[#504+0*#504-0*#504]
#101=[#505+0*#505-0*#505]
#100=[#102+0.81132*#101-0.81132*#102]
G01 X26.6860Y1.1320Z[#100+-0.1000]
#102=[#504+0*#504-0*#504]
#101=[#505+0*#505-0*#505]
#100=[#102+0.81142*#101-0.81142*#102]
G01 X26.6865Y1.1216Z[#100+-0.1000]
#102=[#504+0*#504-0*#504]
#101=[#505+0*#505-0*#505]
#100=[#102+0.81174*#101-0.81174*#102]
G01 X26.6882Y1.1112Z[#100+-0.1000]
#102=[#504+0*#504-0*#504]
#101=[#505+0*#505-0*#505]
#100=[#102+0.81225*#101-0.81225*#102]
G01 X26.6909Y1.1011Z[#100+-0.1000]
#102=[#504+0*#504-0*#504]
#101=[#505+0*#505-0*#505]
#100=[#102+0.81295*#101-0.81295*#102]
G01 X26.6946Y1.0914Z[#100+-0.1000]
#102=[#504+0*#504-0*#504]
#101=[#505+0*#505-0*#505]
#100=[#102+0.81385*#101-0.81385*#102]
G01 X26.6994Y1.0820Z[#100+-0.1000]
#102=[#504+0*#504-0*#504]
#101=[#505+0*#505-0*#505]
#100=[#102+0.81493*#101-0.81493*#102]
G01 X26.7051Y1.0732Z[#100+-0.1000]
#102=[#504+0*#504-0*#504]
#101=[#505+0*#505-0*#505]
#100=[#102+0.81617*#101-0.81617*#102]
G01 X26.7117Y1.0651Z[#100+-0.1000]
#102=[#504+0*#504-0*#504]
#101=[#505+0*#505-0*#505]
#100=[#102+0.81757*#101-0.81757*#102]
G01 X26.7191Y1.0577Z[#100+-0.1000]
#102=[#504+0*#504-0*#504]
#101=[#505+0*#505-0*#505]
#100=[#102+0.81910*#101-0.81910*#102]
G01 X26.7272Y1.0511Z[#100+-0.1000]
#102=[#504+0*#504-0*#504]
#101=[#505+0*#505-0*#505]
#100=[#102+0.82076*#101-0.82076*#102]
G01 X26.7360Y1.0454Z[#100+-0.1000]
#102=[#504+0*#504-0*#504]
#101=[#505+0*#505-0*#505]
#100=[#102+0.82253*#101-0.82253*#102]
G01 X26.7454Y1.0406Z[#100+-0.1000]
#102=[#504+0*#504-0*#504]
#101=[#505+0*#505-0*#505]
#100=[#102+0.82436*#101-0.82436*#102]
G01 X26.7551Y1.0369Z[#100+-0.1000]
#102=[#504+0*#504-0*#504]
#101=[#505+0*#505-0*#505]
#100=[#102+0.82627*#101-0.82627*#102]
G01 X26.7652Y1.0342Z[#100+-0.1000]
#102=[#504+0*#504-0*#504]
#101=[#505+0*#505-0*#505]
#100=[#102+0.82823*#101-0.82823*#102]
G01 X26.7756Y1.0325Z[#100+-0.1000]
#102=[#504+0*#504-0*#504]
#101=[#505+0*#505-0*#505]
#100=[#102+0.83019*#101-0.83019*#102]
G01 X26.7860Y1.0320Z[#100+-0.1000]
#102=[#505+0*#505-0*#505]
#101=[#506+0*#506-0*#506]
#100=[#102+0.16977*#101-0.16977*#102]
G01 X28.5860Y1.0320Z[#100+-0.1000]
#102=[#505+0*#505-0*#505]
#101=[#506+0*#506-0*#506]
#100=[#102+0.17173*#101-0.17173*#102]
G01 X28.5964Y1.0325Z[#100+-0.1000]
#102=[#505+0*#505-0*#505]
#101=[#506+0*#506-0*#506]
#100=[#102+0.17370*#101-0.17370*#102]
G01 X28.6068Y1.0342Z[#100+-0.1000]
#102=[#505+0*#505-0*#505]
#101=[#506+0*#506-0*#506]
#100=[#102+0.17560*#101-0.17560*#102]
G01 X28.6169Y1.0369Z[#100+-0.1000]
#102=[#505+0*#505-0*#505]
#101=[#506+0*#506-0*#506]
#100=[#102+0.17743*#101-0.17743*#102]
G01 X28.6266Y1.0406Z[#100+-0.1000]
#102=[#505+0*#505-0*#505]
#101=[#506+0*#506-0*#506]
#100=[#102+0.17921*#101-0.17921*#102]
G01 X28.6360Y1.0454Z[#100+-0.1000]
#102=[#505+0*#505-0*#505]
#101=[#506+0*#506-0*#506]
#100=[#102+0.18087*#101-0.18087*#102]
G01 X28.6448Y1.0511Z[#100+-0.1000]
#102=[#505+0*#505-0*#505]
#101=[#506+0*#506-0*#506]
#100=[#102+0.18239*#101-0.18239*#102]
G01 X28.6529Y1.0577Z[#100+-0.1000]
#102=[#505+0*#505-0*#505]
#101=[#506+0*#506-0*#506]
#100=[#102+0.18379*#101-0.18379*#102]
G01 X28.6603Y1.0651Z[#100+-0.1000]
#102=[#505+0*#505-0*#505]
#101=[#506+0*#506-0*#506]
#100=[#102+0.18503*#101-0.18503*#102]
G01 X28.6669Y1.0732Z[#100+-0.1000]
#102=[#505+0*#505-0*#505]
#101=[#506+0*#506-0*#506]
#100=[#102+0.18611*#101-0.18611*#102]
G01 X28.6726Y1.0820Z[#100+-0.1000]
#102=[#505+0*#505-0*#505]
#101=[#506+0*#506-0*#506]
#100=[#102+0.18702*#101-0.18702*#102]
G01 X28.6774Y1.0914Z[#100+-0.1000]
#102=[#505+0*#505-0*#505]
#101=[#506+0*#506-0*#506]
#100=[#102+0.18771*#101-0.18771*#102]
G01 X28.6811Y1.1011Z[#100+-0.1000]
#102=[#505+0*#505-0*#505]
#101=[#506+0*#506-0*#506]
#100=[#102+0.18822*#101-0.18822*#102]
G01 X28.6838Y1.1112Z[#100+-0.1000]
#102=[#505+0*#505-0*#505]
#101=[#506+0*#506-0*#506]
#100=[#102+0.18854*#101-0.18854*#102]
G01 X28.6855Y1.1216Z[#100+-0.1000]
#102=[#505+0*#505-0*#505]
#101=[#506+0*#506-0*#506]
#100=[#102+0.18864*#101-0.18864*#102]
G01 X28.6860Y1.1320Z[#100+-0.1000]
#102=[#514+0.66148*#505-0.66148*#514]
#101=[#515+0.66148*#506-0.66148*#515]
#100=[#102+0.18864*#101-0.18864*#102]
G01 X28.6860Y2.9320Z[#100+-0.1000]
#102=[#514+0.65949*#505-0.65949*#514]
#101=[#515+0.65949*#506-0.65949*#515]
#100=[#102+0.18854*#101-0.18854*#102]
G01 X28.6855Y2.9424Z[#100+-0.1000]
#102=[#514+0.65750*#505-0.65750*#514]
#101=[#515+0.65750*#506-0.65750*#515]
#100=[#102+0.18822*#101-0.18822*#102]
G01 X28.6838Y2.9528Z[#100+-0.1000]
#102=[#514+0.65557*#505-0.65557*#514]
#101=[#515+0.65557*#506-0.65557*#515]
#100=[#102+0.18771*#101-0.18771*#102]
G01 X28.6811Y2.9629Z[#100+-0.1000]
#102=[#514+0.65371*#505-0.65371*#514]
#101=[#515+0.65371*#506-0.65371*#515]
#100=[#102+0.18702*#101-0.18702*#102]
G01 X28.6774Y2.9726Z[#100+-0.1000]
#102=[#514+0.65191*#505-0.65191*#514]
#101=[#515+0.65191*#506-0.65191*#515]
#100=[#102+0.18611*#101-0.18611*#102]
G01 X28.6726Y2.9820Z[#100+-0.1000]
#102=[#514+0.65023*#505-0.65023*#514]
#101=[#515+0.65023*#506-0.65023*#515]
#100=[#102+0.18503*#101-0.18503*#102]
G01 X28.6669Y2.9908Z[#100+-0.1000]
#102=[#514+0.64868*#505-0.64868*#514]
#101=[#515+0.64868*#506-0.64868*#515]
#100=[#102+0.18379*#101-0.18379*#102]
G01 X28.6603Y2.9989Z[#100+-0.1000]
#102=[#514+0.64727*#505-0.64727*#514]
#101=[#515+0.64727*#506-0.64727*#515]
#100=[#102+0.18239*#101-0.18239*#102]
G01 X28.6529Y3.0063Z[#100+-0.1000]
#102=[#514+0.64600*#505-0.64600*#514]
#101=[#515+0.64600*#506-0.64600*#515]
#100=[#102+0.18087*#101-0.18087*#102]
G01 X28.6448Y3.0129Z[#100+-0.1000]
#102=[#514+0.64491*#505-0.64491*#514]
#101=[#515+0.64491*#506-0.64491*#515]
#100=[#102+0.17921*#101-0.17921*#102]
G01 X28.6360Y3.0186Z[#100+-0.1000]
#102=[#514+0.64400*#505-0.64400*#514]
#101=[#515+0.64400*#506-0.64400*#515]
#100=[#102+0.17743*#101-0.17743*#102]
G01 X28.6266Y3.0234Z[#100+-0.1000]
#102=[#514+0.64329*#505-0.64329*#514]
#101=[#515+0.64329*#506-0.64329*#515]
#100=[#102+0.17560*#101-0.17560*#102]
G01 X28.6169Y3.0271Z[#100+-0.1000]
#102=[#514+0.64277*#505-0.64277*#514]
#101=[#515+0.64277*#506-0.64277*#515]
#100=[#102+0.17370*#101-0.17370*#102]
G01 X28.6068Y3.0298Z[#100+-0.1000]
#102=[#514+0.64245*#505-0.64245*#514]
#101=[#515+0.64245*#506-0.64245*#515]
#100=[#102+0.17173*#101-0.17173*#102]
G01 X28.5964Y3.0315Z[#100+-0.1000]
#102=[#514+0.64235*#505-0.64235*#514]
#101=[#515+0.64235*#506-0.64235*#515]
#100=[#102+0.16977*#101-0.16977*#102]
G01 X28.5860Y3.0320Z[#100+-0.1000]
#102=[#513+0.64235*#504-0.64235*#513]
#101=[#514+0.64235*#505-0.64235*#514]
#100=[#102+0.83019*#101-0.83019*#102]
G01 X26.7860Y3.0320Z[#100+-0.1000]
#102=[#513+0.64245*#504-0.64245*#513]
#101=[#514+0.64245*#505-0.64245*#514]
#100=[#102+0.82823*#101-0.82823*#102]
G01 X26.7756Y3.0315Z[#100+-0.1000]
#102=[#513+0.64277*#504-0.64277*#513]
#101=[#514+0.64277*#505-0.64277*#514]
#100=[#102+0.82627*#101-0.82627*#102]
G01 X26.7652Y3.0298Z[#100+-0.1000]
#102=[#513+0.64329*#504-0.64329*#513]
#101=[#514+0.64329*#505-0.64329*#514]
#100=[#102+0.82436*#101-0.82436*#102]
G01 X26.7551Y3.0271Z[#100+-0.1000]
#102=[#513+0.64400*#504-0.64400*#513]
#101=[#514+0.64400*#505-0.64400*#514]
#100=[#102+0.82253*#101-0.82253*#102]
G01 X26.7454Y3.0234Z[#100+-0.1000]
#102=[#513+0.64491*#504-0.64491*#513]
#101=[#514+0.64491*#505-0.64491*#514]
#100=[#102+0.82076*#101-0.82076*#102]
G01 X26.7360Y3.0186Z[#100+-0.1000]
#102=[#513+0.64600*#504-0.64600*#513]
#101=[#514+0.64600*#505-0.64600*#514]
#100=[#102+0.81910*#101-0.81910*#102]
G01 X26.7272Y3.0129Z[#100+-0.1000]
#102=[#513+0.64727*#504-0.64727*#513]
#101=[#514+0.64727*#505-0.64727*#514]
#100=[#102+0.81757*#101-0.81757*#102]
G01 X26.7191Y3.0063Z[#100+-0.1000]
#102=[#513+0.64868*#504-0.64868*#513]
#101=[#514+0.64868*#505-0.64868*#514]
#100=[#102+0.81617*#101-0.81617*#102]
G01 X26.7117Y2.9989Z[#100+-0.1000]
#102=[#513+0.65023*#504-0.65023*#513]
#101=[#514+0.65023*#505-0.65023*#514]
#100=[#102+0.81493*#101-0.81493*#102]
G01 X26.7051Y2.9908Z[#100+-0.1000]
#102=[#513+0.65191*#504-0.65191*#513]
#101=[#514+0.65191*#505-0.65191*#514]
#100=[#102+0.81385*#101-0.81385*#102]
G01 X26.6994Y2.9820Z[#100+-0.1000]
#102=[#513+0.65371*#504-0.65371*#513]
#101=[#514+0.65371*#505-0.65371*#514]
#100=[#102+0.81295*#101-0.81295*#102]
G01 X26.6946Y2.9726Z[#100+-0.1000]
#102=[#513+0.65557*#504-0.65557*#513]
#101=[#514+0.65557*#505-0.65557*#514]
#100=[#102+0.81225*#101-0.81225*#102]
G01 X26.6909Y2.9629Z[#100+-0.1000]
#102=[#513+0.65750*#504-0.65750*#513]
#101=[#514+0.65750*#505-0.65750*#514]
#100=[#102+0.81174*#101-0.81174*#102]
G01 X26.6882Y2.9528Z[#100+-0.1000]
#102=[#513+0.65949*#504-0.65949*#513]
#101=[#514+0.65949*#505-0.65949*#514]
#100=[#102+0.81142*#101-0.81142*#102]
G01 X26.6865Y2.9424Z[#100+-0.1000]
#102=[#513+0.66148*#504-0.66148*#513]
#101=[#514+0.66148*#505-0.66148*#514]
#100=[#102+0.81132*#101-0.81132*#102]
G01 X26.6860Y2.9320Z[#100+-0.1000]
#102=[#513+0.71885*#504-0.71885*#513]
#101=[#514+0.71885*#505-0.71885*#514]
#100=[#102+0.81132*#101-0.81132*#102]
G01 X26.6860Y2.6320Z[#100+-0.1000]
#102=[#513+0.71885*#504-0.71885*#513]
#101=[#514+0.71885*#505-0.71885*#514]
#100=[#102+0.24196*#101-0.24196*#102]
G01 X23.6680Y2.6320Z[#100+-0.1000]
#102=[#513+0.65230*#504-0.65230*#513]
#101=[#514+0.65230*#505-0.65230*#514]
#100=[#102+0.24196*#101-0.24196*#102]
G01 X23.6680Y2.9800Z[#100+-0.1000]
#102=[#513+0.65230*#504-0.65230*#513]
#101=[#514+0.65230*#505-0.65230*#514]
#100=[#102+0.30327*#101-0.30327*#102]
G01 X23.9930Y2.9800Z[#100+-0.1000]
#102=[#513+0.65220*#504-0.65220*#513]
#101=[#514+0.65220*#505-0.65220*#514]
#100=[#102+0.30523*#101-0.30523*#102]
G01 X24.0034Y2.9805Z[#100+-0.1000]
#102=[#513+0.65188*#504-0.65188*#513]
#101=[#514+0.65188*#505-0.65188*#514]
#100=[#102+0.30719*#101-0.30719*#102]
G01 X24.0138Y2.9822Z[#100+-0.1000]
#102=[#513+0.65136*#504-0.65136*#513]
#101=[#514+0.65136*#505-0.65136*#514]
#100=[#102+0.30910*#101-0.30910*#102]
G01 X24.0239Y2.9849Z[#100+-0.1000]
#102=[#513+0.65065*#504-0.65065*#513]
#101=[#514+0.65065*#505-0.65065*#514]
#100=[#102+0.31093*#101-0.31093*#102]
G01 X24.0336Y2.9886Z[#100+-0.1000]
#102=[#513+0.64973*#504-0.64973*#513]
#101=[#514+0.64973*#505-0.64973*#514]
#100=[#102+0.31270*#101-0.31270*#102]
G01 X24.0430Y2.9934Z[#100+-0.1000]
#102=[#513+0.64864*#504-0.64864*#513]
#101=[#514+0.64864*#505-0.64864*#514]
#100=[#102+0.31436*#101-0.31436*#102]
G01 X24.0518Y2.9991Z[#100+-0.1000]
#102=[#513+0.64738*#504-0.64738*#513]
#101=[#514+0.64738*#505-0.64738*#514]
#100=[#102+0.31589*#101-0.31589*#102]
G01 X24.0599Y3.0057Z[#100+-0.1000]
#102=[#513+0.64597*#504-0.64597*#513]
#101=[#514+0.64597*#505-0.64597*#514]
#100=[#102+0.31729*#101-0.31729*#102]
G01 X24.0673Y3.0131Z[#100+-0.1000]
#102=[#513+0.64442*#504-0.64442*#513]
#101=[#514+0.64442*#505-0.64442*#514]
#100=[#102+0.31853*#101-0.31853*#102]
G01 X24.0739Y3.0212Z[#100+-0.1000]
#102=[#513+0.64273*#504-0.64273*#513]
#101=[#514+0.64273*#505-0.64273*#514]
#100=[#102+0.31961*#101-0.31961*#102]
G01 X24.0796Y3.0300Z[#100+-0.1000]
#102=[#513+0.64094*#504-0.64094*#513]
#101=[#514+0.64094*#505-0.64094*#514]
#100=[#102+0.32051*#101-0.32051*#102]
G01 X24.0844Y3.0394Z[#100+-0.1000]
#102=[#513+0.63908*#504-0.63908*#513]
#101=[#514+0.63908*#505-0.63908*#514]
#100=[#102+0.32121*#101-0.32121*#102]
G01 X24.0881Y3.0491Z[#100+-0.1000]
#102=[#513+0.63715*#504-0.63715*#513]
#101=[#514+0.63715*#505-0.63715*#514]
#100=[#102+0.32172*#101-0.32172*#102]
G01 X24.0908Y3.0592Z[#100+-0.1000]
#102=[#513+0.63516*#504-0.63516*#513]
#101=[#514+0.63516*#505-0.63516*#514]
#100=[#102+0.32204*#101-0.32204*#102]
G01 X24.0925Y3.0696Z[#100+-0.1000]
#102=[#513+0.63317*#504-0.63317*#513]
#101=[#514+0.63317*#505-0.63317*#514]
#100=[#102+0.32214*#101-0.32214*#102]
G01 X24.0930Y3.0800Z[#100+-0.1000]
#102=[#513+0.34629*#504-0.34629*#513]
#101=[#514+0.34629*#505-0.34629*#514]
#100=[#102+0.32214*#101-0.32214*#102]
G01 X24.0930Y4.5800Z[#100+-0.1000]
#102=[#513+0.34430*#504-0.34430*#513]
#101=[#514+0.34430*#505-0.34430*#514]
#100=[#102+0.32204*#101-0.32204*#102]
G01 X24.0925Y4.5904Z[#100+-0.1000]
#102=[#513+0.34231*#504-0.34231*#513]
#101=[#514+0.34231*#505-0.34231*#514]
#100=[#102+0.32172*#101-0.32172*#102]
G01 X24.0908Y4.6008Z[#100+-0.1000]
#102=[#513+0.34038*#504-0.34038*#513]
#101=[#514+0.34038*#505-0.34038*#514]
#100=[#102+0.32121*#101-0.32121*#102]
G01 X24.0881Y4.6109Z[#100+-0.1000]
#102=[#513+0.33852*#504-0.33852*#513]
#101=[#514+0.33852*#505-0.33852*#514]
#100=[#102+0.32051*#101-0.32051*#102]
G01 X24.0844Y4.6206Z[#100+-0.1000]
#102=[#513+0.33672*#504-0.33672*#513]
#101=[#514+0.33672*#505-0.33672*#514]
#100=[#102+0.31961*#101-0.31961*#102]
G01 X24.0796Y4.6300Z[#100+-0.1000]
#102=[#513+0.33504*#504-0.33504*#513]
#101=[#514+0.33504*#505-0.33504*#514]
#100=[#102+0.31853*#101-0.31853*#102]
G01 X24.0739Y4.6388Z[#100+-0.1000]
#102=[#513+0.33349*#504-0.33349*#513]
#101=[#514+0.33349*#505-0.33349*#514]
#100=[#102+0.31729*#101-0.31729*#102]
G01 X24.0673Y4.6469Z[#100+-0.1000]
#102=[#513+0.33208*#504-0.33208*#513]
#101=[#514+0.33208*#505-0.33208*#514]
#100=[#102+0.31589*#101-0.31589*#102]
G01 X24.0599Y4.6543Z[#100+-0.1000]
#102=[#513+0.33082*#504-0.33082*#513]
#101=[#514+0.33082*#505-0.33082*#514]
#100=[#102+0.31436*#101-0.31436*#102]
G01 X24.0518Y4.6609Z[#100+-0.1000]
#102=[#513+0.32972*#504-0.32972*#513]
#101=[#514+0.32972*#505-0.32972*#514]
#100=[#102+0.31270*#101-0.31270*#102]
G01 X24.0430Y4.6666Z[#100+-0.1000]
#102=[#513+0.32881*#504-0.32881*#513]
#101=[#514+0.32881*#505-0.32881*#514]
#100=[#102+0.31093*#101-0.31093*#102]
G01 X24.0336Y4.6714Z[#100+-0.1000]
#102=[#513+0.32810*#504-0.32810*#513]
#101=[#514+0.32810*#505-0.32810*#514]
#100=[#102+0.30910*#101-0.30910*#102]
G01 X24.0239Y4.6751Z[#100+-0.1000]
#102=[#513+0.32758*#504-0.32758*#513]
#101=[#514+0.32758*#505-0.32758*#514]
#100=[#102+0.30719*#101-0.30719*#102]
G01 X24.0138Y4.6778Z[#100+-0.1000]
#102=[#513+0.32726*#504-0.32726*#513]
#101=[#514+0.32726*#505-0.32726*#514]
#100=[#102+0.30523*#101-0.30523*#102]
G01 X24.0034Y4.6795Z[#100+-0.1000]
#102=[#513+0.32716*#504-0.32716*#513]
#101=[#514+0.32716*#505-0.32716*#514]
#100=[#102+0.30327*#101-0.30327*#102]
G01 X23.9930Y4.6800Z[#100+-0.1000]
#102=[#513+0.32716*#504-0.32716*#513]
#101=[#514+0.32716*#505-0.32716*#514]
#100=[#102+0.06745*#101-0.06745*#102]
G01 X22.7430Y4.6800Z[#100+-0.1000]
#102=[#513+0.32726*#504-0.32726*#513]
#101=[#514+0.32726*#505-0.32726*#514]
#100=[#102+0.06549*#101-0.06549*#102]
G01 X22.7326Y4.6795Z[#100+-0.1000]
#102=[#513+0.32758*#504-0.32758*#513]
#101=[#514+0.32758*#505-0.32758*#514]
#100=[#102+0.06352*#101-0.06352*#102]
G01 X22.7222Y4.6778Z[#100+-0.1000]
#102=[#513+0.32810*#504-0.32810*#513]
#101=[#514+0.32810*#505-0.32810*#514]
#100=[#102+0.06162*#101-0.06162*#102]
G01 X22.7121Y4.6751Z[#100+-0.1000]
#102=[#513+0.32881*#504-0.32881*#513]
#101=[#514+0.32881*#505-0.32881*#514]
#100=[#102+0.05979*#101-0.05979*#102]
G01 X22.7024Y4.6714Z[#100+-0.1000]
#102=[#513+0.32972*#504-0.32972*#513]
#101=[#514+0.32972*#505-0.32972*#514]
#100=[#102+0.05802*#101-0.05802*#102]
G01 X22.6930Y4.6666Z[#100+-0.1000]
#102=[#513+0.33082*#504-0.33082*#513]
#101=[#514+0.33082*#505-0.33082*#514]
#100=[#102+0.05636*#101-0.05636*#102]
G01 X22.6842Y4.6609Z[#100+-0.1000]
#102=[#513+0.33208*#504-0.33208*#513]
#101=[#514+0.33208*#505-0.33208*#514]
#100=[#102+0.05483*#101-0.05483*#102]
G01 X22.6761Y4.6543Z[#100+-0.1000]
#102=[#513+0.33349*#504-0.33349*#513]
#101=[#514+0.33349*#505-0.33349*#514]
#100=[#102+0.05343*#101-0.05343*#102]
G01 X22.6687Y4.6469Z[#100+-0.1000]
#102=[#513+0.33504*#504-0.33504*#513]
#101=[#514+0.33504*#505-0.33504*#514]
#100=[#102+0.05219*#101-0.05219*#102]
G01 X22.6621Y4.6388Z[#100+-0.1000]
#102=[#513+0.33672*#504-0.33672*#513]
#101=[#514+0.33672*#505-0.33672*#514]
#100=[#102+0.05111*#101-0.05111*#102]
G01 X22.6564Y4.6300Z[#100+-0.1000]
#102=[#513+0.33852*#504-0.33852*#513]
#101=[#514+0.33852*#505-0.33852*#514]
#100=[#102+0.05021*#101-0.05021*#102]
G01 X22.6516Y4.6206Z[#100+-0.1000]
#102=[#513+0.34038*#504-0.34038*#513]
#101=[#514+0.34038*#505-0.34038*#514]
#100=[#102+0.04951*#101-0.04951*#102]
G01 X22.6479Y4.6109Z[#100+-0.1000]
#102=[#513+0.34231*#504-0.34231*#513]
#101=[#514+0.34231*#505-0.34231*#514]
#100=[#102+0.04900*#101-0.04900*#102]
G01 X22.6452Y4.6008Z[#100+-0.1000]
#102=[#513+0.34430*#504-0.34430*#513]
#101=[#514+0.34430*#505-0.34430*#514]
#100=[#102+0.04868*#101-0.04868*#102]
G01 X22.6435Y4.5904Z[#100+-0.1000]
#102=[#513+0.34629*#504-0.34629*#513]
#101=[#514+0.34629*#505-0.34629*#514]
#100=[#102+0.04858*#101-0.04858*#102]
G01 X22.6430Y4.5800Z[#100+-0.1000]
#102=[#513+0.63317*#504-0.63317*#513]
#101=[#514+0.63317*#505-0.63317*#514]
#100=[#102+0.04858*#101-0.04858*#102]
G01 X22.6430Y3.0800Z[#100+-0.1000]
#102=[#513+0.63516*#504-0.63516*#513]
#101=[#514+0.63516*#505-0.63516*#514]
#100=[#102+0.04868*#101-0.04868*#102]
G01 X22.6435Y3.0696Z[#100+-0.1000]
#102=[#513+0.63715*#504-0.63715*#513]
#101=[#514+0.63715*#505-0.63715*#514]
#100=[#102+0.04900*#101-0.04900*#102]
G01 X22.6452Y3.0592Z[#100+-0.1000]
#102=[#513+0.63908*#504-0.63908*#513]
#101=[#514+0.63908*#505-0.63908*#514]
#100=[#102+0.04951*#101-0.04951*#102]
G01 X22.6479Y3.0491Z[#100+-0.1000]
#102=[#513+0.64094*#504-0.64094*#513]
#101=[#514+0.64094*#505-0.64094*#514]
#100=[#102+0.05021*#101-0.05021*#102]
G01 X22.6516Y3.0394Z[#100+-0.1000]
#102=[#513+0.64273*#504-0.64273*#513]
#101=[#514+0.64273*#505-0.64273*#514]
#100=[#102+0.05111*#101-0.05111*#102]
G01 X22.6564Y3.0300Z[#100+-0.1000]
#102=[#513+0.64442*#504-0.64442*#513]
#101=[#514+0.64442*#505-0.64442*#514]
#100=[#102+0.05219*#101-0.05219*#102]
G01 X22.6621Y3.0212Z[#100+-0.1000]
#102=[#513+0.64597*#504-0.64597*#513]
#101=[#514+0.64597*#505-0.64597*#514]
#100=[#102+0.05343*#101-0.05343*#102]
G01 X22.6687Y3.0131Z[#100+-0.1000]
#102=[#513+0.64738*#504-0.64738*#513]
#101=[#514+0.64738*#505-0.64738*#514]
#100=[#102+0.05483*#101-0.05483*#102]
G01 X22.6761Y3.0057Z[#100+-0.1000]
#102=[#513+0.64864*#504-0.64864*#513]
#101=[#514+0.64864*#505-0.64864*#514]
#100=[#102+0.05636*#101-0.05636*#102]
G01 X22.6842Y2.9991Z[#100+-0.1000]
#102=[#513+0.64973*#504-0.64973*#513]
#101=[#514+0.64973*#505-0.64973*#514]
#100=[#102+0.05802*#101-0.05802*#102]
G01 X22.6930Y2.9934Z[#100+-0.1000]
#102=[#513+0.65065*#504-0.65065*#513]
#101=[#514+0.65065*#505-0.65065*#514]
#100=[#102+0.05979*#101-0.05979*#102]
G01 X22.7024Y2.9886Z[#100+-0.1000]
#102=[#513+0.65136*#504-0.65136*#513]
#101=[#514+0.65136*#505-0.65136*#514]
#100=[#102+0.06162*#101-0.06162*#102]
G01 X22.7121Y2.9849Z[#100+-0.1000]
#102=[#513+0.65188*#504-0.65188*#513]
#101=[#514+0.65188*#505-0.65188*#514]
#100=[#102+0.06352*#101-0.06352*#102]
G01 X22.7222Y2.9822Z[#100+-0.1000]
#102=[#513+0.65220*#504-0.65220*#513]
#101=[#514+0.65220*#505-0.65220*#514]
#100=[#102+0.06549*#101-0.06549*#102]
G01 X22.7326Y2.9805Z[#100+-0.1000]
#102=[#513+0.65230*#504-0.65230*#513]
#101=[#514+0.65230*#505-0.65230*#514]
#100=[#102+0.06745*#101-0.06745*#102]
G01 X22.7430Y2.9800Z[#100+-0.1000]
#102=[#513+0.65230*#504-0.65230*#513]
#101=[#514+0.65230*#505-0.65230*#514]
#100=[#102+0.12876*#101-0.12876*#102]
G01 X23.0680Y2.9800Z[#100+-0.1000]
#102=[#513+0.71885*#504-0.71885*#513]
#101=[#514+0.71885*#505-0.71885*#514]
#100=[#102+0.12876*#101-0.12876*#102]
G01 X23.0680Y2.6320Z[#100+-0.1000]
#102=[#512+0.71885*#503-0.71885*#512]
#101=[#513+0.71885*#504-0.71885*#513]
#100=[#102+0.82433*#101-0.82433*#102]
G01 X21.4543Y2.6320Z[#100+-0.1000]
#102=[#512+0.66524*#503-0.66524*#512]
#101=[#513+0.66524*#504-0.66524*#513]
#100=[#102+0.77145*#101-0.77145*#102]
G01 X21.1740Y2.9123Z[#100+-0.1000]
#102=[#521+0.70897*#512-0.70897*#521]
#101=[#522+0.70897*#513-0.70897*#522]
#100=[#102+0.77145*#101-0.77145*#102]
G01 X21.17400Y7.91230Z[#100+-0.1000] ;segmented line. Max segment length set to 5
#102=[#521+0.55640*#512-0.55640*#521]
#101=[#522+0.55640*#513-0.55640*#522]
#100=[#102+0.77145*#101-0.77145*#102]
G01 X21.1740Y8.7100Z[#100+-0.1000]
#102=[#521+0.55640*#512-0.55640*#521]
#101=[#522+0.55640*#513-0.55640*#522]
#100=[#102+0.82804*#101-0.82804*#102]
G01 X21.4740Y8.7100Z[#100+-0.1000]
#102=[#521+0.55631*#512-0.55631*#521]
#101=[#522+0.55631*#513-0.55631*#522]
#100=[#102+0.83000*#101-0.83000*#102]
G01 X21.4844Y8.7105Z[#100+-0.1000]
#102=[#521+0.55598*#512-0.55598*#521]
#101=[#522+0.55598*#513-0.55598*#522]
#100=[#102+0.83197*#101-0.83197*#102]
G01 X21.4948Y8.7122Z[#100+-0.1000]
#102=[#521+0.55546*#512-0.55546*#521]
#101=[#522+0.55546*#513-0.55546*#522]
#100=[#102+0.83387*#101-0.83387*#102]
G01 X21.5049Y8.7149Z[#100+-0.1000]
#102=[#521+0.55476*#512-0.55476*#521]
#101=[#522+0.55476*#513-0.55476*#522]
#100=[#102+0.83570*#101-0.83570*#102]
G01 X21.5146Y8.7186Z[#100+-0.1000]
#102=[#521+0.55384*#512-0.55384*#521]
#101=[#522+0.55384*#513-0.55384*#522]
#100=[#102+0.83748*#101-0.83748*#102]
G01 X21.5240Y8.7234Z[#100+-0.1000]
#102=[#521+0.55275*#512-0.55275*#521]
#101=[#522+0.55275*#513-0.55275*#522]
#100=[#102+0.83914*#101-0.83914*#102]
G01 X21.5328Y8.7291Z[#100+-0.1000]
#102=[#521+0.55149*#512-0.55149*#521]
#101=[#522+0.55149*#513-0.55149*#522]
#100=[#102+0.84066*#101-0.84066*#102]
G01 X21.5409Y8.7357Z[#100+-0.1000]
#102=[#521+0.55007*#512-0.55007*#521]
#101=[#522+0.55007*#513-0.55007*#522]
#100=[#102+0.84206*#101-0.84206*#102]
G01 X21.5483Y8.7431Z[#100+-0.1000]
#102=[#521+0.54852*#512-0.54852*#521]
#101=[#522+0.54852*#513-0.54852*#522]
#100=[#102+0.84331*#101-0.84331*#102]
G01 X21.5549Y8.7512Z[#100+-0.1000]
#102=[#521+0.54684*#512-0.54684*#521]
#101=[#522+0.54684*#513-0.54684*#522]
#100=[#102+0.84438*#101-0.84438*#102]
G01 X21.5606Y8.7600Z[#100+-0.1000]
#102=[#521+0.54504*#512-0.54504*#521]
#101=[#522+0.54504*#513-0.54504*#522]
#100=[#102+0.84529*#101-0.84529*#102]
G01 X21.5654Y8.7694Z[#100+-0.1000]
#102=[#521+0.54319*#512-0.54319*#521]
#101=[#522+0.54319*#513-0.54319*#522]
#100=[#102+0.84598*#101-0.84598*#102]
G01 X21.5691Y8.7791Z[#100+-0.1000]
#102=[#521+0.54125*#512-0.54125*#521]
#101=[#522+0.54125*#513-0.54125*#522]
#100=[#102+0.84649*#101-0.84649*#102]
G01 X21.5718Y8.7892Z[#100+-0.1000]
#102=[#521+0.53926*#512-0.53926*#521]
#101=[#522+0.53926*#513-0.53926*#522]
#100=[#102+0.84681*#101-0.84681*#102]
G01 X21.5735Y8.7996Z[#100+-0.1000]
#102=[#521+0.53728*#512-0.53728*#521]
#101=[#522+0.53728*#513-0.53728*#522]
#100=[#102+0.84691*#101-0.84691*#102]
G01 X21.5740Y8.8100Z[#100+-0.1000]
#102=[#521+0.02089*#512-0.02089*#521]
#101=[#522+0.02089*#513-0.02089*#522]
#100=[#102+0.84691*#101-0.84691*#102]
G01 X21.5740Y11.5100Z[#100+-0.1000]
#102=[#521+0.01890*#512-0.01890*#521]
#101=[#522+0.01890*#513-0.01890*#522]
#100=[#102+0.84681*#101-0.84681*#102]
G01 X21.5735Y11.5204Z[#100+-0.1000]
#102=[#521+0.01691*#512-0.01691*#521]
#101=[#522+0.01691*#513-0.01691*#522]
#100=[#102+0.84649*#101-0.84649*#102]
G01 X21.5718Y11.5308Z[#100+-0.1000]
#102=[#521+0.01498*#512-0.01498*#521]
#101=[#522+0.01498*#513-0.01498*#522]
#100=[#102+0.84598*#101-0.84598*#102]
G01 X21.5691Y11.5409Z[#100+-0.1000]
#102=[#521+0.01312*#512-0.01312*#521]
#101=[#522+0.01312*#513-0.01312*#522]
#100=[#102+0.84529*#101-0.84529*#102]
G01 X21.5654Y11.5506Z[#100+-0.1000]
#102=[#521+0.01132*#512-0.01132*#521]
#101=[#522+0.01132*#513-0.01132*#522]
#100=[#102+0.84438*#101-0.84438*#102]
G01 X21.5606Y11.5600Z[#100+-0.1000]
#102=[#521+0.00964*#512-0.00964*#521]
#101=[#522+0.00964*#513-0.00964*#522]
#100=[#102+0.84331*#101-0.84331*#102]
G01 X21.5549Y11.5688Z[#100+-0.1000]
#102=[#521+0.00809*#512-0.00809*#521]
#101=[#522+0.00809*#513-0.00809*#522]
#100=[#102+0.84206*#101-0.84206*#102]
G01 X21.5483Y11.5769Z[#100+-0.1000]
#102=[#521+0.00667*#512-0.00667*#521]
#101=[#522+0.00667*#513-0.00667*#522]
#100=[#102+0.84066*#101-0.84066*#102]
G01 X21.5409Y11.5843Z[#100+-0.1000]
#102=[#521+0.00541*#512-0.00541*#521]
#101=[#522+0.00541*#513-0.00541*#522]
#100=[#102+0.83914*#101-0.83914*#102]
G01 X21.5328Y11.5909Z[#100+-0.1000]
#102=[#521+0.00432*#512-0.00432*#521]
#101=[#522+0.00432*#513-0.00432*#522]
#100=[#102+0.83748*#101-0.83748*#102]
G01 X21.5240Y11.5966Z[#100+-0.1000]
#102=[#521+0.00340*#512-0.00340*#521]
#101=[#522+0.00340*#513-0.00340*#522]
#100=[#102+0.83570*#101-0.83570*#102]
G01 X21.5146Y11.6014Z[#100+-0.1000]
#102=[#521+0.00270*#512-0.00270*#521]
#101=[#522+0.00270*#513-0.00270*#522]
#100=[#102+0.83387*#101-0.83387*#102]
G01 X21.5049Y11.6051Z[#100+-0.1000]
#102=[#521+0.00218*#512-0.00218*#521]
#101=[#522+0.00218*#513-0.00218*#522]
#100=[#102+0.83197*#101-0.83197*#102]
G01 X21.4948Y11.6078Z[#100+-0.1000]
#102=[#521+0.00186*#512-0.00186*#521]
#101=[#522+0.00186*#513-0.00186*#522]
#100=[#102+0.83000*#101-0.83000*#102]
G01 X21.4844Y11.6095Z[#100+-0.1000]
#102=[#521+0.00176*#512-0.00176*#521]
#101=[#522+0.00176*#513-0.00176*#522]
#100=[#102+0.82804*#101-0.82804*#102]
G01 X21.4740Y11.6100Z[#100+-0.1000]
#102=[#521+0.00176*#512-0.00176*#521]
#101=[#522+0.00176*#513-0.00176*#522]
#100=[#102+0.48846*#101-0.48846*#102]
G01 X19.6740Y11.6100Z[#100+-0.1000]
#102=[#521+0.00186*#512-0.00186*#521]
#101=[#522+0.00186*#513-0.00186*#522]
#100=[#102+0.48650*#101-0.48650*#102]
G01 X19.6636Y11.6095Z[#100+-0.1000]
#102=[#521+0.00218*#512-0.00218*#521]
#101=[#522+0.00218*#513-0.00218*#522]
#100=[#102+0.48454*#101-0.48454*#102]
G01 X19.6532Y11.6078Z[#100+-0.1000]
#102=[#521+0.00270*#512-0.00270*#521]
#101=[#522+0.00270*#513-0.00270*#522]
#100=[#102+0.48263*#101-0.48263*#102]
G01 X19.6431Y11.6051Z[#100+-0.1000]
#102=[#521+0.00340*#512-0.00340*#521]
#101=[#522+0.00340*#513-0.00340*#522]
#100=[#102+0.48080*#101-0.48080*#102]
G01 X19.6334Y11.6014Z[#100+-0.1000]
#102=[#521+0.00432*#512-0.00432*#521]
#101=[#522+0.00432*#513-0.00432*#522]
#100=[#102+0.47903*#101-0.47903*#102]
G01 X19.6240Y11.5966Z[#100+-0.1000]
#102=[#521+0.00541*#512-0.00541*#521]
#101=[#522+0.00541*#513-0.00541*#522]
#100=[#102+0.47737*#101-0.47737*#102]
G01 X19.6152Y11.5909Z[#100+-0.1000]
#102=[#521+0.00667*#512-0.00667*#521]
#101=[#522+0.00667*#513-0.00667*#522]
#100=[#102+0.47584*#101-0.47584*#102]
G01 X19.6071Y11.5843Z[#100+-0.1000]
#102=[#521+0.00809*#512-0.00809*#521]
#101=[#522+0.00809*#513-0.00809*#522]
#100=[#102+0.47444*#101-0.47444*#102]
G01 X19.5997Y11.5769Z[#100+-0.1000]
#102=[#521+0.00964*#512-0.00964*#521]
#101=[#522+0.00964*#513-0.00964*#522]
#100=[#102+0.47320*#101-0.47320*#102]
G01 X19.5931Y11.5688Z[#100+-0.1000]
#102=[#521+0.01132*#512-0.01132*#521]
#101=[#522+0.01132*#513-0.01132*#522]
#100=[#102+0.47212*#101-0.47212*#102]
G01 X19.5874Y11.5600Z[#100+-0.1000]
#102=[#521+0.01312*#512-0.01312*#521]
#101=[#522+0.01312*#513-0.01312*#522]
#100=[#102+0.47122*#101-0.47122*#102]
G01 X19.5826Y11.5506Z[#100+-0.1000]
#102=[#521+0.01498*#512-0.01498*#521]
#101=[#522+0.01498*#513-0.01498*#522]
#100=[#102+0.47052*#101-0.47052*#102]
G01 X19.5789Y11.5409Z[#100+-0.1000]
#102=[#521+0.01691*#512-0.01691*#521]
#101=[#522+0.01691*#513-0.01691*#522]
#100=[#102+0.47001*#101-0.47001*#102]
G01 X19.5762Y11.5308Z[#100+-0.1000]
#102=[#521+0.01890*#512-0.01890*#521]
#101=[#522+0.01890*#513-0.01890*#522]
#100=[#102+0.46969*#101-0.46969*#102]
G01 X19.5745Y11.5204Z[#100+-0.1000]
#102=[#521+0.02089*#512-0.02089*#521]
#101=[#522+0.02089*#513-0.02089*#522]
#100=[#102+0.46959*#101-0.46959*#102]
G01 X19.5740Y11.5100Z[#100+-0.1000]
#102=[#521+0.53728*#512-0.53728*#521]
#101=[#522+0.53728*#513-0.53728*#522]
#100=[#102+0.46959*#101-0.46959*#102]
G01 X19.5740Y8.8100Z[#100+-0.1000]
#102=[#521+0.53926*#512-0.53926*#521]
#101=[#522+0.53926*#513-0.53926*#522]
#100=[#102+0.46969*#101-0.46969*#102]
G01 X19.5745Y8.7996Z[#100+-0.1000]
#102=[#521+0.54125*#512-0.54125*#521]
#101=[#522+0.54125*#513-0.54125*#522]
#100=[#102+0.47001*#101-0.47001*#102]
G01 X19.5762Y8.7892Z[#100+-0.1000]
#102=[#521+0.54319*#512-0.54319*#521]
#101=[#522+0.54319*#513-0.54319*#522]
#100=[#102+0.47052*#101-0.47052*#102]
G01 X19.5789Y8.7791Z[#100+-0.1000]
#102=[#521+0.54504*#512-0.54504*#521]
#101=[#522+0.54504*#513-0.54504*#522]
#100=[#102+0.47122*#101-0.47122*#102]
G01 X19.5826Y8.7694Z[#100+-0.1000]
#102=[#521+0.54684*#512-0.54684*#521]
#101=[#522+0.54684*#513-0.54684*#522]
#100=[#102+0.47212*#101-0.47212*#102]
G01 X19.5874Y8.7600Z[#100+-0.1000]
#102=[#521+0.54852*#512-0.54852*#521]
#101=[#522+0.54852*#513-0.54852*#522]
#100=[#102+0.47320*#101-0.47320*#102]
G01 X19.5931Y8.7512Z[#100+-0.1000]
#102=[#521+0.55007*#512-0.55007*#521]
#101=[#522+0.55007*#513-0.55007*#522]
#100=[#102+0.47444*#101-0.47444*#102]
G01 X19.5997Y8.7431Z[#100+-0.1000]
#102=[#521+0.55149*#512-0.55149*#521]
#101=[#522+0.55149*#513-0.55149*#522]
#100=[#102+0.47584*#101-0.47584*#102]
G01 X19.6071Y8.7357Z[#100+-0.1000]
#102=[#521+0.55275*#512-0.55275*#521]
#101=[#522+0.55275*#513-0.55275*#522]
#100=[#102+0.47737*#101-0.47737*#102]
G01 X19.6152Y8.7291Z[#100+-0.1000]
#102=[#521+0.55384*#512-0.55384*#521]
#101=[#522+0.55384*#513-0.55384*#522]
#100=[#102+0.47903*#101-0.47903*#102]
G01 X19.6240Y8.7234Z[#100+-0.1000]
#102=[#521+0.55476*#512-0.55476*#521]
#101=[#522+0.55476*#513-0.55476*#522]
#100=[#102+0.48080*#101-0.48080*#102]
G01 X19.6334Y8.7186Z[#100+-0.1000]
#102=[#521+0.55546*#512-0.55546*#521]
#101=[#522+0.55546*#513-0.55546*#522]
#100=[#102+0.48263*#101-0.48263*#102]
G01 X19.6431Y8.7149Z[#100+-0.1000]
#102=[#521+0.55598*#512-0.55598*#521]
#101=[#522+0.55598*#513-0.55598*#522]
#100=[#102+0.48454*#101-0.48454*#102]
G01 X19.6532Y8.7122Z[#100+-0.1000]
#102=[#521+0.55631*#512-0.55631*#521]
#101=[#522+0.55631*#513-0.55631*#522]
#100=[#102+0.48650*#101-0.48650*#102]
G01 X19.6636Y8.7105Z[#100+-0.1000]
#102=[#521+0.55640*#512-0.55640*#521]
#101=[#522+0.55640*#513-0.55640*#522]
#100=[#102+0.48846*#101-0.48846*#102]
G01 X19.6740Y8.7100Z[#100+-0.1000]
#102=[#521+0.55640*#512-0.55640*#521]
#101=[#522+0.55640*#513-0.55640*#522]
#100=[#102+0.54506*#101-0.54506*#102]
G01 X19.9740Y8.7100Z[#100+-0.1000]
#102=[#512+0.51268*#503-0.51268*#512]
#101=[#513+0.51268*#504-0.51268*#513]
#100=[#102+0.54506*#101-0.54506*#102]
G01 X19.97400Y3.71000Z[#100+-0.1000] ;segmented line. Max segment length set to 5
#102=[#512+0.71277*#503-0.71277*#512]
#101=[#513+0.71277*#504-0.71277*#513]
#100=[#102+0.54506*#101-0.54506*#102]
G01 X19.9740Y2.6638Z[#100+-0.1000]
#102=[#512+0.72496*#503-0.72496*#512]
#101=[#513+0.72496*#504-0.72496*#513]
#100=[#102+0.54572*#101-0.54572*#102]
G01 X19.9775Y2.6001Z[#100+-0.1000]
#102=[#512+0.73559*#503-0.73559*#512]
#101=[#513+0.73559*#504-0.73559*#513]
#100=[#102+0.54732*#101-0.54732*#102]
G01 X19.9860Y2.5445Z[#100+-0.1000]
#102=[#512+0.74240*#503-0.74240*#512]
#101=[#513+0.74240*#504-0.74240*#513]
#100=[#102+0.54900*#101-0.54900*#102]
G01 X19.9949Y2.5089Z[#100+-0.1000]
#102=[#503+0*#503-0*#503]
#101=[#504+0*#504-0*#504]
#100=[#102+0.27603*#101-0.27603*#102]
G01 X18.5480Y1.0620Z[#100+-0.1000]
#102=[#502+0*#502-0*#502]
#101=[#503+0*#503-0*#503]
#100=[#102+0.33275*#101-0.33275*#102]
G01 X13.54800Y1.06200Z[#100+-0.1000] ;segmented line. Max segment length set to 5
#102=[#501+0*#501-0*#501]
#101=[#502+0*#502-0*#502]
#100=[#102+0.86078*#101-0.86078*#102]
G01 X11.0463Y1.0620Z[#100+-0.1000]
#102=[#510+0.66410*#501-0.66410*#510]
#101=[#511+0.66410*#502-0.66410*#511]
#100=[#102+0.51058*#101-0.51058*#102]
G01 X9.1900Y2.9183Z[#100+-0.1000]
#102=[#519+0.70782*#510-0.70782*#519]
#101=[#520+0.70782*#511-0.70782*#520]
#100=[#102+0.51058*#101-0.51058*#102]
G01 X9.19000Y7.91830Z[#100+-0.1000] ;segmented line. Max segment length set to 5
#102=[#519+0.57055*#510-0.57055*#519]
#101=[#520+0.57055*#511-0.57055*#520]
#100=[#102+0.51058*#101-0.51058*#102]
G01 X9.1900Y8.6360Z[#100+-0.1000]
#102=[#519+0.56489*#510-0.56489*#519]
#101=[#520+0.56489*#511-0.56489*#520]
#100=[#102+0.51030*#101-0.51030*#102]
G01 X9.1885Y8.6656Z[#100+-0.1000]
#102=[#519+0.55845*#510-0.55845*#519]
#101=[#520+0.55845*#511-0.55845*#520]
#100=[#102+0.50930*#101-0.50930*#102]
G01 X9.1832Y8.6993Z[#100+-0.1000]
#102=[#519+0.55395*#510-0.55395*#519]
#101=[#520+0.55395*#511-0.55395*#520]
#100=[#102+0.50816*#101-0.50816*#102]
G01 X9.1772Y8.7228Z[#100+-0.1000]
#102=[#519+0.54948*#510-0.54948*#519]
#101=[#520+0.54948*#511-0.54948*#520]
#100=[#102+0.50660*#101-0.50660*#102]
G01 X9.1689Y8.7462Z[#100+-0.1000]
#102=[#519+0.54397*#510-0.54397*#519]
#101=[#520+0.54397*#511-0.54397*#520]
#100=[#102+0.50413*#101-0.50413*#102]
G01 X9.1558Y8.7750Z[#100+-0.1000]
#102=[#519+0.53791*#510-0.53791*#519]
#101=[#520+0.53791*#511-0.53791*#520]
#100=[#102+0.50050*#101-0.50050*#102]
G01 X9.1366Y8.8067Z[#100+-0.1000]
#102=[#519+0.53383*#510-0.53383*#519]
#101=[#520+0.53383*#511-0.53383*#520]
#100=[#102+0.49747*#101-0.49747*#102]
G01 X9.1205Y8.8280Z[#100+-0.1000]
#102=[#519+0.52999*#510-0.52999*#519]
#101=[#520+0.52999*#511-0.52999*#520]
#100=[#102+0.49400*#101-0.49400*#102]
G01 X9.1021Y8.8481Z[#100+-0.1000]
#102=[#527+0.85379*#518-0.85379*#527]
#101=[#528+0.85379*#519-0.85379*#528]
#100=[#102+0.82700*#101-0.82700*#102]
G01 X5.56660Y12.38367Z[#100+-0.1000] ;segmented line. Max segment length set to 5
#102=[#527+0.62378*#518-0.62378*#527]
#101=[#528+0.62378*#519-0.62378*#528]
#100=[#102+0.60012*#101-0.60012*#102]
G01 X4.3640Y13.5863Z[#100+-0.1000]
#102=[#527+0.48919*#518-0.48919*#527]
#101=[#528+0.48919*#519-0.48919*#528]
#100=[#102+0.60012*#101-0.60012*#102]
G01 X4.3640Y14.2900Z[#100+-0.1000]
#102=[#527+0.48919*#518-0.48919*#527]
#101=[#528+0.48919*#519-0.48919*#528]
#100=[#102+0.70388*#101-0.70388*#102]
G01 X4.9140Y14.2900Z[#100+-0.1000]
#102=[#527+0.48910*#518-0.48910*#527]
#101=[#528+0.48910*#519-0.48910*#528]
#100=[#102+0.70584*#101-0.70584*#102]
G01 X4.9244Y14.2905Z[#100+-0.1000]
#102=[#527+0.48877*#518-0.48877*#527]
#101=[#528+0.48877*#519-0.48877*#528]
#100=[#102+0.70780*#101-0.70780*#102]
G01 X4.9348Y14.2922Z[#100+-0.1000]
#102=[#527+0.48826*#518-0.48826*#527]
#101=[#528+0.48826*#519-0.48826*#528]
#100=[#102+0.70971*#101-0.70971*#102]
G01 X4.9449Y14.2949Z[#100+-0.1000]
#102=[#527+0.48755*#518-0.48755*#527]
#101=[#528+0.48755*#519-0.48755*#528]
#100=[#102+0.71154*#101-0.71154*#102]
G01 X4.9546Y14.2986Z[#100+-0.1000]
#102=[#527+0.48663*#518-0.48663*#527]
#101=[#528+0.48663*#519-0.48663*#528]
#100=[#102+0.71331*#101-0.71331*#102]
G01 X4.9640Y14.3034Z[#100+-0.1000]
#102=[#527+0.48554*#518-0.48554*#527]
#101=[#528+0.48554*#519-0.48554*#528]
#100=[#102+0.71497*#101-0.71497*#102]
G01 X4.9728Y14.3091Z[#100+-0.1000]
#102=[#527+0.48428*#518-0.48428*#527]
#101=[#528+0.48428*#519-0.48428*#528]
#100=[#102+0.71650*#101-0.71650*#102]
G01 X4.9809Y14.3157Z[#100+-0.1000]
#102=[#527+0.48286*#518-0.48286*#527]
#101=[#528+0.48286*#519-0.48286*#528]
#100=[#102+0.71790*#101-0.71790*#102]
G01 X4.9883Y14.3231Z[#100+-0.1000]
#102=[#527+0.48131*#518-0.48131*#527]
#101=[#528+0.48131*#519-0.48131*#528]
#100=[#102+0.71914*#101-0.71914*#102]
G01 X4.9949Y14.3312Z[#100+-0.1000]
#102=[#527+0.47963*#518-0.47963*#527]
#101=[#528+0.47963*#519-0.47963*#528]
#100=[#102+0.72022*#101-0.72022*#102]
G01 X5.0006Y14.3400Z[#100+-0.1000]
#102=[#527+0.47783*#518-0.47783*#527]
#101=[#528+0.47783*#519-0.47783*#528]
#100=[#102+0.72112*#101-0.72112*#102]
G01 X5.0054Y14.3494Z[#100+-0.1000]
#102=[#527+0.47598*#518-0.47598*#527]
#101=[#528+0.47598*#519-0.47598*#528]
#100=[#102+0.72182*#101-0.72182*#102]
G01 X5.0091Y14.3591Z[#100+-0.1000]
#102=[#527+0.47405*#518-0.47405*#527]
#101=[#528+0.47405*#519-0.47405*#528]
#100=[#102+0.72233*#101-0.72233*#102]
G01 X5.0118Y14.3692Z[#100+-0.1000]
#102=[#527+0.47206*#518-0.47206*#527]
